;FLAVOR:Marlin
;TIME:24938
;Filament used: 86.1775m
;Layer height: 0.6
;MINX:56.494
;MINY:25.395
;MINZ:0.24
;MAXX:193.507
;MAXY:184.605
;MAXZ:65.69
;Generated with Cura_SteamEngine main
M82 ;absolute extrusion mode
G21 ; set units to millimeters
G90 ; use absolute positioning
M82 ; absolute extrusion mode
M104 S200 ; set extruder temp
M140 S60 ; set bed temp
M190 S60 ; wait for bed temp
M109 S200 ; wait for extruder temp
G28 W ; home all without mesh bed level
G80 ; mesh bed leveling
G92 E0.0 ; reset extruder distance position
G1 Y-3.0 F1000.0 ; go outside print area
G1 X60.0 E9.0 F1000.0 ; intro line
G1 X100.0 E21.5 F1000.0 ; intro line
G92 E0.0 ; reset extruder distance position
G92 E0
G92 E0
G1 F2100 E-0.8
;LAYER_COUNT:106
;LAYER:-5
M107
G0 F7200 X57.871 Y33.804 Z0.24
;TYPE:SUPPORT-INTERFACE
G1 F2100 E0
G1 F1350 X57.453 Y34.789 E0.08541
G1 X57.113 Y35.793 E0.17003
G1 X56.829 Y36.897 E0.26102
G1 X56.666 Y37.779 E0.33262
G1 X56.541 Y38.853 E0.41893
G1 X56.494 Y40.003 E0.51081
G1 X56.494 Y170.352 E10.91583
G1 X56.582 Y171.611 E11.01657
G1 X56.726 Y172.583 E11.09501
G1 X56.971 Y173.703 E11.18652
G1 X57.309 Y174.807 E11.27869
G1 X57.686 Y175.778 E11.36183
G1 X58.079 Y176.615 E11.43565
G1 X58.632 Y177.613 E11.52672
G1 X59.223 Y178.505 E11.61214
G1 X59.882 Y179.36 E11.69831
G1 X60.647 Y180.202 E11.78912
G1 X61.298 Y180.829 E11.86126
G1 X62.17 Y181.562 E11.9522
G1 X63.052 Y182.191 E12.03867
G1 X64.024 Y182.776 E12.12923
G1 X64.891 Y183.223 E12.20709
G1 X65.799 Y183.609 E12.28585
G1 X66.884 Y183.984 E12.37749
G1 X67.996 Y184.27 E12.46914
G1 X68.961 Y184.449 E12.54749
G1 X69.953 Y184.558 E12.62715
G1 X71.083 Y184.605 E12.71743
G1 X179.253 Y184.605 E21.35202
G1 X180.513 Y184.517 E21.45285
G1 X181.482 Y184.373 E21.53105
G1 X182.527 Y184.145 E21.61643
G1 X183.622 Y183.824 E21.70751
G1 X184.695 Y183.406 E21.79943
G1 X185.516 Y183.02 E21.87185
G1 X186.514 Y182.467 E21.96293
G1 X187.406 Y181.877 E22.0483
G1 X188.248 Y181.227 E22.13321
G1 X189.103 Y180.45 E22.22543
G1 X189.73 Y179.799 E22.29758
G1 X190.461 Y178.929 E22.38829
G1 X191.09 Y178.051 E22.4745
G1 X191.599 Y177.215 E22.55263
G1 X192.122 Y176.211 E22.643
G1 X192.547 Y175.215 E22.72944
G1 X192.885 Y174.218 E22.81347
G1 X193.171 Y173.103 E22.90536
G1 X193.349 Y172.137 E22.98376
G1 X193.47 Y170.999 E23.07512
G1 X193.507 Y169.998 E23.15507
G1 X193.506 Y39.646 E33.56033
G1 X193.418 Y38.386 E33.66116
G1 X193.274 Y37.417 E33.73936
G1 X193.028 Y36.291 E33.83136
G1 X192.723 Y35.273 E33.91619
G1 X192.307 Y34.206 E34.00761
G1 X191.921 Y33.385 E34.08002
G1 X191.406 Y32.455 E34.16488
G1 X190.785 Y31.509 E34.25521
G1 X190.115 Y30.638 E34.34293
G1 X189.351 Y29.798 E34.43357
G1 X188.702 Y29.171 E34.5056
G1 X187.833 Y28.441 E34.5962
G1 X186.955 Y27.812 E34.68241
G1 X185.977 Y27.224 E34.77351
G1 X185.097 Y26.772 E34.85247
G1 X184.112 Y26.354 E34.93789
G1 X183.108 Y26.014 E35.0225
G1 X182.004 Y25.73 E35.1135
G1 X181.122 Y25.567 E35.1851
G1 X180.048 Y25.442 E35.27141
G1 X178.916 Y25.395 E35.36184
G1 X70.747 Y25.395 E43.99636
G1 X69.49 Y25.483 E44.09695
G1 X68.515 Y25.627 E44.17562
G1 X67.39 Y25.873 E44.26754
G1 X66.382 Y26.176 E44.35156
G1 X65.305 Y26.594 E44.44378
G1 X64.484 Y26.98 E44.5162
G1 X63.554 Y27.495 E44.60106
G1 X62.606 Y28.118 E44.69161
G1 X61.737 Y28.786 E44.7791
G1 X60.897 Y29.55 E44.86974
G1 X60.27 Y30.199 E44.94178
G1 X59.54 Y31.068 E45.03237
G1 X58.902 Y31.96 E45.11991
G1 X58.323 Y32.924 E45.20968
G1 X57.871 Y33.804 E45.28865
G0 F7200 X58.446 Y33.556
G1 F1350 X193.106 Y168.216 E60.49023
G0 F7200 X193.089 Y170.462
G1 F1350 X57.757 Y35.13 E75.76768
G0 F7200 X57.245 Y36.88
G1 F1350 X192.873 Y172.508 E91.07854
G0 F7200 X192.425 Y174.323
G1 F1350 X56.944 Y38.842 E106.3728
G0 F7200 X56.893 Y41.053
G1 F1350 X191.794 Y175.955 E121.60165
G0 F7200 X191.001 Y177.425
G1 F1350 X56.893 Y43.316 E136.74098
G0 F7200 X56.893 Y45.579
G1 F1350 X190.077 Y178.763 E151.77594
G0 F7200 X189.015 Y179.964
G1 F1350 X56.893 Y47.842 E166.69101
G0 F7200 X56.893 Y50.104
G1 F1350 X187.83 Y181.042 E181.47237
G0 F7200 X186.512 Y181.987
G1 F1350 X56.893 Y52.367 E196.10494
G0 F7200 X56.893 Y54.63
G1 F1350 X185.056 Y182.793 E210.57308
G0 F7200 X183.455 Y183.455
G1 F1350 X56.893 Y56.893 E224.8605
G0 F7200 X56.893 Y59.155
G1 F1350 X181.66 Y183.923 E238.94533
G0 F7200 X179.649 Y184.175
G1 F1350 X56.893 Y61.418 E252.80314
G0 F7200 X56.893 Y63.681
G1 F1350 X177.415 Y184.204 E266.40877
G0 F7200 X175.153 Y184.204
G1 F1350 X56.893 Y65.944 E279.75898
G0 F7200 X56.893 Y68.206
G1 F1350 X172.89 Y184.204 E292.85378
G0 F7200 X170.627 Y184.204
G1 F1350 X56.893 Y70.469 E305.69311
G0 F7200 X56.893 Y72.732
G1 F1350 X168.364 Y184.204 E318.27698
G0 F7200 X166.102 Y184.204
G1 F1350 X56.893 Y74.995 E330.60543
G0 F7200 X56.893 Y77.257
G1 F1350 X163.839 Y184.204 E342.67848
G0 F7200 X161.576 Y184.204
G1 F1350 X56.893 Y79.52 E354.49605
G0 F7200 X56.893 Y81.783
G1 F1350 X159.313 Y184.204 E366.05817
G0 F7200 X157.051 Y184.204
G1 F1350 X56.893 Y84.046 E377.36487
G0 F7200 X56.893 Y86.308
G1 F1350 X154.788 Y184.204 E388.41616
G0 F7200 X152.525 Y184.204
G1 F1350 X56.893 Y88.571 E399.21198
G0 F7200 X56.893 Y90.834
G1 F1350 X150.263 Y184.204 E409.75239
G0 F7200 X148 Y184.204
G1 F1350 X56.893 Y93.096 E420.03739
G0 F7200 X56.893 Y95.359
G1 F1350 X145.737 Y184.204 E430.06693
G0 F7200 X143.474 Y184.204
G1 F1350 X56.893 Y97.622 E439.841
G0 F7200 X56.893 Y99.885
G1 F1350 X141.212 Y184.204 E449.35965
G0 F7200 X138.949 Y184.204
G1 F1350 X56.893 Y102.147 E458.6229
G0 F7200 X56.893 Y104.41
G1 F1350 X136.686 Y184.204 E467.63068
G0 F7200 X134.423 Y184.204
G1 F1350 X56.892 Y106.672 E476.38311
G0 F7200 X56.892 Y108.935
G1 F1350 X132.161 Y184.204 E484.88012
G0 F7200 X129.898 Y184.204
G1 F1350 X56.892 Y111.198 E493.12167
G0 F7200 X56.892 Y113.46
G1 F1350 X127.635 Y184.204 E501.10781
G0 F7200 X125.372 Y184.204
G1 F1350 X56.892 Y115.723 E508.83848
G0 F7200 X56.892 Y117.986
G1 F1350 X123.11 Y184.204 E516.31374
G0 F7200 X120.847 Y184.204
G1 F1350 X56.892 Y120.249 E523.53353
G0 F7200 X56.892 Y122.511
G1 F1350 X118.584 Y184.204 E530.49791
G0 F7200 X116.321 Y184.204
G1 F1350 X56.892 Y124.774 E537.20683
G0 F7200 X56.892 Y127.037
G1 F1350 X114.059 Y184.204 E543.66033
G0 F7200 X111.796 Y184.204
G1 F1350 X56.892 Y129.3 E549.85837
G0 F7200 X56.892 Y131.562
G1 F1350 X109.533 Y184.204 E555.801
G0 F7200 X107.27 Y184.204
G1 F1350 X56.892 Y133.825 E561.48816
G0 F7200 X56.892 Y136.088
G1 F1350 X105.008 Y184.204 E566.91991
G0 F7200 X102.745 Y184.204
G1 F1350 X56.892 Y138.351 E572.09619
G0 F7200 X56.892 Y140.613
G1 F1350 X100.482 Y184.204 E577.01707
G0 F7200 X98.219 Y184.204
G1 F1350 X56.892 Y142.876 E581.68247
G0 F7200 X56.892 Y145.139
G1 F1350 X95.957 Y184.204 E586.09247
G0 F7200 X93.694 Y184.204
G1 F1350 X56.892 Y147.402 E590.24699
G0 F7200 X56.892 Y149.664
G1 F1350 X91.431 Y184.204 E594.14611
G0 F7200 X89.168 Y184.204
G1 F1350 X56.892 Y151.927 E597.78976
G0 F7200 X56.892 Y154.19
G1 F1350 X86.906 Y184.204 E601.178
G0 F7200 X84.643 Y184.204
G1 F1350 X56.892 Y156.453 E604.31077
G0 F7200 X56.892 Y158.715
G1 F1350 X82.38 Y184.204 E607.18814
G0 F7200 X80.118 Y184.204
G1 F1350 X56.892 Y160.978 E609.81009
G0 F7200 X56.892 Y163.241
G1 F1350 X77.855 Y184.204 E612.17657
G0 F7200 X75.592 Y184.204
G1 F1350 X56.892 Y165.503 E614.28765
G0 F7200 X56.892 Y167.766
G1 F1350 X73.329 Y184.204 E616.14325
G0 F7200 X71.065 Y184.202
G1 F1350 X56.892 Y170.029 E617.74322
G0 F7200 X57.122 Y172.522
G1 F1350 X68.568 Y183.967 E619.03529
G0 F7200 X65.298 Y182.961
G1 F1350 X58.139 Y175.802 E619.84346
G0 F7200 X193.106 Y165.953
G1 F1350 X59.276 Y32.123 E634.95135
G0 F7200 X60.253 Y30.838
G1 F1350 X193.106 Y163.69 E649.94889
G0 F7200 X193.106 Y161.428
G1 F1350 X61.353 Y29.675 E664.8223
G0 F7200 X62.582 Y28.641
G1 F1350 X193.106 Y159.165 E679.55698
G0 F7200 X193.106 Y156.902
G1 F1350 X63.941 Y27.737 E694.13824
G0 F7200 X65.439 Y26.973
G1 F1350 X193.106 Y154.64 E708.5504
G0 F7200 X193.106 Y152.377
G1 F1350 X67.105 Y26.376 E722.77448
G0 F7200 X68.958 Y25.966
G1 F1350 X193.106 Y150.114 E736.78938
G0 F7200 X193.106 Y147.851
G1 F1350 X71.05 Y25.795 E750.56811
G0 F7200 X73.312 Y25.795
G1 F1350 X193.106 Y145.589 E764.09149
G0 F7200 X193.106 Y143.326
G1 F1350 X75.575 Y25.795 E777.35941
G0 F7200 X77.838 Y25.795
G1 F1350 X193.106 Y141.063 E790.37186
G0 F7200 X193.106 Y138.8
G1 F1350 X80.101 Y25.795 E803.12884
G0 F7200 X82.363 Y25.795
G1 F1350 X193.106 Y136.538 E815.63047
G0 F7200 X193.106 Y134.275
G1 F1350 X84.626 Y25.795 E827.87662
G0 F7200 X86.889 Y25.795
G1 F1350 X193.106 Y132.012 E839.86732
G0 F7200 X193.106 Y129.749
G1 F1350 X89.152 Y25.795 E851.60254
G0 F7200 X91.414 Y25.795
G1 F1350 X193.106 Y127.487 E863.08242
G0 F7200 X193.106 Y125.224
G1 F1350 X93.677 Y25.795 E874.30682
G0 F7200 X95.94 Y25.795
G1 F1350 X193.106 Y122.961 E885.27576
G0 F7200 X193.106 Y120.698
G1 F1350 X98.202 Y25.795 E895.98929
G0 F7200 X100.465 Y25.795
G1 F1350 X193.106 Y118.436 E906.4474
G0 F7200 X193.106 Y116.173
G1 F1350 X102.728 Y25.795 E916.65005
G0 F7200 X104.991 Y25.795
G1 F1350 X193.106 Y113.91 E926.59723
G0 F7200 X193.106 Y111.647
G1 F1350 X107.253 Y25.795 E936.28901
G0 F7200 X109.516 Y25.795
G1 F1350 X193.106 Y109.385 E945.72537
G0 F7200 X193.106 Y107.122
G1 F1350 X111.779 Y25.795 E954.90626
G0 F7200 X114.042 Y25.795
G1 F1350 X193.106 Y104.859 E963.83169
G0 F7200 X193.106 Y102.596
G1 F1350 X116.304 Y25.795 E972.50171
G0 F7200 X118.567 Y25.795
G1 F1350 X193.106 Y100.334 E980.91631
G0 F7200 X193.106 Y98.071
G1 F1350 X120.83 Y25.795 E989.07545
G0 F7200 X123.093 Y25.795
G1 F1350 X193.106 Y95.808 E996.97913
G0 F7200 X193.106 Y93.545
G1 F1350 X125.355 Y25.795 E1004.62739
G0 F7200 X127.618 Y25.795
G1 F1350 X193.106 Y91.283 E1012.02024
G0 F7200 X193.106 Y89.02
G1 F1350 X129.881 Y25.795 E1019.15762
G0 F7200 X132.144 Y25.795
G1 F1350 X193.106 Y86.757 E1026.03954
G0 F7200 X193.106 Y84.495
G1 F1350 X134.406 Y25.795 E1032.6661
G0 F7200 X136.669 Y25.795
G1 F1350 X193.106 Y82.232 E1039.0372
G0 F7200 X193.106 Y79.969
G1 F1350 X138.932 Y25.795 E1045.15283
G0 F7200 X141.195 Y25.795
G1 F1350 X193.106 Y77.706 E1051.01299
G0 F7200 X193.106 Y75.444
G1 F1350 X143.457 Y25.795 E1056.6178
G0 F7200 X145.72 Y25.795
G1 F1350 X193.106 Y73.181 E1061.96714
G0 F7200 X193.106 Y70.918
G1 F1350 X147.983 Y25.795 E1067.06102
G0 F7200 X150.246 Y25.795
G1 F1350 X193.106 Y68.655 E1071.89942
G0 F7200 X193.106 Y66.393
G1 F1350 X152.508 Y25.795 E1076.48248
G0 F7200 X154.771 Y25.795
G1 F1350 X193.106 Y64.13 E1080.81006
G0 F7200 X193.106 Y61.867
G1 F1350 X157.034 Y25.795 E1084.88218
G0 F7200 X159.297 Y25.795
G1 F1350 X193.106 Y59.604 E1088.69883
G0 F7200 X193.106 Y57.342
G1 F1350 X161.559 Y25.795 E1092.26013
G0 F7200 X163.822 Y25.795
G1 F1350 X193.106 Y55.079 E1095.56596
G0 F7200 X193.106 Y52.816
G1 F1350 X166.085 Y25.795 E1098.61633
G0 F7200 X168.347 Y25.795
G1 F1350 X193.106 Y50.553 E1101.41128
G0 F7200 X193.106 Y48.291
G1 F1350 X170.61 Y25.795 E1103.95082
G0 F7200 X172.873 Y25.795
G1 F1350 X193.106 Y46.028 E1106.2349
G0 F7200 X193.106 Y43.765
G1 F1350 X175.136 Y25.795 E1108.26351
G0 F7200 X177.398 Y25.795
G1 F1350 X193.106 Y41.502 E1110.0367
G0 F7200 X193.073 Y39.206
G1 F1350 X179.694 Y25.827 E1111.54704
G0 F7200 X182.365 Y26.236
G1 F1350 X192.673 Y36.543 E1112.71064
G0 F7200 X191.072 Y32.681
M104 S200
G1 F1350 X186.245 Y27.853 E1113.25561
G0 F600 X186.245 Y27.853 Z1.14
G0 F7200 X64.502 Y27.421
;TIME_ELAPSED:637.680112
;LAYER:-4
;TYPE:SUPPORT
G1 F1350 X58.53 Y33.393 E1115.78375
G0 F7200 X63.621 Y27.92
G1 F1350 X62.816 Y28.455 E1116.07309
G1 X61.951 Y29.129 E1116.40134
G1 X61.168 Y29.841 E1116.71814
G1 X60.575 Y30.457 E1116.97409
G1 X59.908 Y31.25 E1117.28427
G1 X59.246 Y32.164 E1117.62209
G1 X58.683 Y33.094 E1117.94752
G1 X58.23 Y33.975 E1118.24406
G1 X57.805 Y34.992 E1118.574
G1 X57.528 Y35.81 E1118.83252
G1 X66.899 Y26.438 E1122.79978
G1 X67.585 Y26.236 E1123.01385
G1 X68.43 Y26.047 E1123.27304
G1 X68.754 Y25.998 E1123.37113
G1 X57.071 Y37.68 E1128.31671
G1 X56.903 Y39.262 E1128.79293
G1 X70.342 Y25.824 E1134.48188
G1 X70.778 Y25.793 E1134.61272
G1 X71.786 Y25.793 E1134.91446
G1 X56.892 Y40.688 E1141.21978
G1 X56.892 Y42.102 E1141.64305
G1 X73.201 Y25.793 E1148.54718
G1 X74.615 Y25.793 E1148.97045
G1 X56.892 Y43.516 E1156.47317
G1 X56.892 Y44.93 E1156.89644
G1 X76.029 Y25.793 E1164.99775
G1 X77.443 Y25.793 E1165.42102
G1 X56.892 Y46.345 E1174.12114
G1 X56.892 Y47.759 E1174.5444
G1 X78.857 Y25.793 E1183.84311
G1 X80.272 Y25.793 E1184.26668
G1 X56.892 Y49.173 E1194.16419
G1 X56.892 Y50.587 E1194.58746
G1 X81.686 Y25.793 E1205.08356
G1 X83.1 Y25.793 E1205.50683
G1 X56.892 Y52.002 E1216.60174
G1 X56.892 Y53.416 E1217.02501
G1 X84.514 Y25.793 E1228.71851
G1 X85.929 Y25.793 E1229.14207
G1 X56.892 Y54.83 E1241.43438
G1 X56.892 Y56.244 E1241.85765
G1 X87.343 Y25.793 E1254.74854
G1 X88.757 Y25.793 E1255.17181
G1 X56.892 Y57.658 E1268.6613
G1 X56.892 Y59.073 E1269.08487
G1 X90.171 Y25.793 E1283.17316
G1 X91.585 Y25.793 E1283.59642
G1 X56.892 Y60.487 E1298.28331
G1 X56.892 Y61.901 E1298.70658
G1 X93 Y25.793 E1313.99226
G1 X94.414 Y25.793 E1314.41553
G1 X56.892 Y63.315 E1330.29981
G1 X56.892 Y64.729 E1330.72308
G1 X95.828 Y25.793 E1347.20595
G1 X97.242 Y25.793 E1347.62922
G1 X56.892 Y66.144 E1364.71089
G1 X56.892 Y67.558 E1365.13416
G1 X98.656 Y25.793 E1382.81443
G1 X100.071 Y25.793 E1383.23799
G1 X56.892 Y68.972 E1401.51706
G1 X56.892 Y70.386 E1401.94033
G1 X101.485 Y25.793 E1420.81799
G1 X102.899 Y25.793 E1421.24126
G1 X56.892 Y71.801 E1440.71773
G1 X56.892 Y73.215 E1441.141
G1 X104.313 Y25.793 E1461.21605
G1 X105.728 Y25.793 E1461.63962
G1 X56.892 Y74.629 E1482.31348
G1 X56.892 Y76.043 E1482.73675
G1 X107.142 Y25.793 E1504.00921
G1 X108.556 Y25.793 E1504.43247
G1 X56.892 Y77.457 E1526.30352
G1 X56.892 Y78.872 E1526.72709
G1 X109.97 Y25.793 E1549.19694
G1 X111.384 Y25.793 E1549.62021
G1 X56.892 Y80.286 E1572.68865
G1 X56.892 Y81.7 E1573.11191
G1 X112.799 Y25.793 E1596.77916
G1 X114.213 Y25.793 E1597.20243
G1 X56.892 Y83.114 E1621.46826
G1 X56.892 Y84.528 E1621.89153
G1 X115.627 Y25.793 E1646.75596
G1 X117.041 Y25.793 E1647.17923
G1 X56.892 Y85.943 E1672.64246
G1 X56.892 Y87.357 E1673.06573
G1 X118.455 Y25.793 E1699.12756
G1 X119.87 Y25.793 E1699.55112
G1 X56.892 Y88.771 E1726.21175
G1 X56.892 Y90.185 E1726.63502
G1 X121.284 Y25.793 E1753.89424
G1 X122.698 Y25.793 E1754.31751
G1 X56.892 Y91.6 E1782.17553
G1 X56.892 Y93.014 E1782.5988
G1 X124.112 Y25.793 E1811.05542
G1 X125.527 Y25.793 E1811.47899
G1 X56.892 Y94.428 E1840.53441
G1 X56.892 Y95.842 E1840.95767
G1 X126.941 Y25.793 E1870.61169
G1 X128.355 Y25.793 E1871.03495
G1 X56.892 Y97.256 E1901.28756
G1 X56.892 Y98.671 E1901.71113
G1 X129.769 Y25.793 E1932.56253
G1 X131.183 Y25.793 E1932.9858
G1 X56.892 Y100.085 E1964.4358
G1 X56.892 Y101.499 E1964.85907
G1 X132.598 Y25.793 E1996.90787
G1 X134.012 Y25.793 E1997.33114
G1 X56.892 Y102.913 E2029.97854
G1 X56.892 Y104.327 E2030.40181
G1 X135.426 Y25.793 E2063.64779
G1 X136.84 Y25.793 E2064.07106
G1 X56.892 Y105.742 E2097.91585
G1 X56.892 Y107.156 E2098.33912
G1 X138.254 Y25.793 E2132.7825
G1 X139.669 Y25.793 E2133.20607
G1 X56.892 Y108.57 E2168.24826
G1 X56.892 Y109.984 E2168.67153
G1 X141.083 Y25.793 E2204.31231
G1 X142.497 Y25.793 E2204.73557
G1 X56.892 Y111.399 E2240.97516
G1 X56.892 Y112.813 E2241.39842
G1 X143.911 Y25.793 E2278.2366
G1 X145.325 Y25.793 E2278.65987
G1 X56.892 Y114.227 E2316.09663
G1 X56.892 Y115.641 E2316.5199
G1 X146.74 Y25.793 E2354.55547
G1 X148.154 Y25.793 E2354.97874
G1 X56.892 Y117.055 E2393.6129
G1 X56.892 Y118.47 E2394.03647
G1 X149.568 Y25.793 E2433.26944
G1 X150.982 Y25.793 E2433.6927
G1 X56.892 Y119.884 E2473.52426
G1 X56.892 Y121.298 E2473.94753
G1 X152.397 Y25.793 E2514.37789
G1 X153.811 Y25.793 E2514.80116
G1 X56.892 Y122.712 E2555.83011
G1 X56.892 Y124.126 E2556.25338
G1 X155.225 Y25.793 E2597.88093
G1 X156.639 Y25.793 E2598.3042
G1 X56.892 Y125.541 E2640.53055
G1 X56.892 Y126.955 E2640.95381
G1 X158.053 Y25.793 E2683.77876
G1 X159.468 Y25.793 E2684.20232
G1 X56.892 Y128.369 E2727.62607
G1 X56.892 Y129.783 E2728.04934
G1 X160.882 Y25.793 E2772.07167
G1 X162.296 Y25.793 E2772.49494
G1 X56.892 Y131.198 E2817.11608
