;FLAVOR:Marlin
;TIME:21950
;Filament used: 82.2692m
;Layer height: 0.6
;MINX:58.079
;MINY:31.737
;MINZ:0.24
;MAXX:191.922
;MAXY:178.263
;MAXZ:66.89
;Generated with Cura_SteamEngine main
M82 ;absolute extrusion mode
G21 ; set units to millimeters
G90 ; use absolute positioning
M82 ; absolute extrusion mode
M104 S200 ; set extruder temp
M140 S60 ; set bed temp
M190 S60 ; wait for bed temp
M109 S200 ; wait for extruder temp
G28 W ; home all without mesh bed level
G80 ; mesh bed leveling
G92 E0.0 ; reset extruder distance position
G1 Y-3.0 F1000.0 ; go outside print area
G1 X60.0 E9.0 F1000.0 ; intro line
G1 X100.0 E21.5 F1000.0 ; intro line
G92 E0.0 ; reset extruder distance position
G92 E0
G92 E0
G1 F2100 E-0.8
;LAYER_COUNT:108
;LAYER:-5
M107
G0 F7200 X59.456 Y40.146 Z0.24
;TYPE:SUPPORT-INTERFACE
G1 F2100 E0
G1 F1350 X59.038 Y41.131 E0.08541
G1 X58.698 Y42.135 E0.17003
G1 X58.414 Y43.239 E0.26102
G1 X58.251 Y44.121 E0.33262
G1 X58.126 Y45.195 E0.41893
G1 X58.079 Y46.345 E0.51081
G1 X58.079 Y164.01 E9.90333
G1 X58.167 Y165.269 E10.00408
G1 X58.311 Y166.241 E10.08251
G1 X58.556 Y167.361 E10.17403
G1 X58.894 Y168.465 E10.2662
G1 X59.271 Y169.436 E10.34934
G1 X59.664 Y170.273 E10.42315
G1 X60.217 Y171.271 E10.51423
G1 X60.808 Y172.163 E10.59964
G1 X61.467 Y173.018 E10.68581
G1 X62.232 Y173.86 E10.77662
G1 X62.883 Y174.487 E10.84877
G1 X63.755 Y175.22 E10.93971
G1 X64.637 Y175.849 E11.02618
G1 X65.609 Y176.434 E11.11674
G1 X66.476 Y176.881 E11.1946
G1 X67.384 Y177.267 E11.27336
G1 X68.469 Y177.642 E11.365
G1 X69.581 Y177.928 E11.45665
G1 X70.546 Y178.107 E11.53499
G1 X71.538 Y178.216 E11.61466
G1 X72.668 Y178.263 E11.70494
G1 X177.668 Y178.263 E20.08649
G1 X178.928 Y178.175 E20.18731
G1 X179.897 Y178.031 E20.26551
G1 X180.942 Y177.803 E20.35089
G1 X182.037 Y177.482 E20.44198
G1 X183.11 Y177.064 E20.5339
G1 X183.931 Y176.678 E20.60632
G1 X184.929 Y176.125 E20.69739
G1 X185.821 Y175.535 E20.78276
G1 X186.663 Y174.885 E20.86767
G1 X187.518 Y174.108 E20.9599
G1 X188.145 Y173.457 E21.03204
G1 X188.876 Y172.587 E21.12275
G1 X189.505 Y171.709 E21.20897
G1 X190.014 Y170.873 E21.2871
G1 X190.537 Y169.869 E21.37746
G1 X190.962 Y168.873 E21.4639
G1 X191.3 Y167.876 E21.54793
G1 X191.586 Y166.761 E21.63982
G1 X191.764 Y165.795 E21.71823
G1 X191.885 Y164.657 E21.80958
G1 X191.922 Y163.656 E21.88954
G1 X191.921 Y45.988 E31.28231
G1 X191.833 Y44.728 E31.38313
G1 X191.689 Y43.759 E31.46133
G1 X191.443 Y42.633 E31.55333
G1 X191.138 Y41.615 E31.63816
G1 X190.722 Y40.548 E31.72958
G1 X190.336 Y39.727 E31.802
G1 X189.821 Y38.797 E31.88686
G1 X189.2 Y37.851 E31.97719
G1 X188.53 Y36.98 E32.06491
G1 X187.766 Y36.14 E32.15554
G1 X187.117 Y35.513 E32.22758
G1 X186.248 Y34.783 E32.31817
G1 X185.37 Y34.154 E32.40439
G1 X184.392 Y33.566 E32.49548
G1 X183.512 Y33.114 E32.57445
G1 X182.527 Y32.696 E32.65986
G1 X181.523 Y32.356 E32.74448
G1 X180.419 Y32.072 E32.83547
G1 X179.537 Y31.909 E32.90707
G1 X178.463 Y31.784 E32.99338
G1 X177.331 Y31.737 E33.08382
G1 X72.332 Y31.737 E41.46529
G1 X71.075 Y31.825 E41.56588
G1 X70.1 Y31.969 E41.64455
G1 X68.975 Y32.215 E41.73647
G1 X67.967 Y32.518 E41.82049
G1 X66.89 Y32.936 E41.91271
G1 X66.069 Y33.322 E41.98513
G1 X65.139 Y33.837 E42.06999
G1 X64.191 Y34.46 E42.16054
G1 X63.322 Y35.128 E42.24803
G1 X62.482 Y35.892 E42.33867
G1 X61.855 Y36.541 E42.41071
G1 X61.125 Y37.41 E42.5013
G1 X60.487 Y38.302 E42.58884
G1 X59.908 Y39.266 E42.67861
G1 X59.456 Y40.146 E42.75758
G0 F7200 X60.109 Y39.745
G1 F1350 X190.136 Y169.771 E57.43609
G0 F7200 X189.329 Y171.227
G1 F1350 X59.401 Y41.299 E72.10349
G0 F7200 X58.877 Y43.038
G1 F1350 X188.386 Y172.547 E86.72358
G0 F7200 X187.316 Y173.739
G1 F1350 X58.553 Y44.976 E101.25946
G0 F7200 X58.478 Y47.164
G1 F1350 X186.115 Y174.801 E115.66823
G0 F7200 X184.788 Y175.737
G1 F1350 X58.478 Y49.427 E129.92719
G0 F7200 X58.478 Y51.69
G1 F1350 X183.313 Y176.525 E144.01965
G0 F7200 X181.691 Y177.166
G1 F1350 X58.478 Y53.952 E157.92905
G0 F7200 X58.478 Y56.215
G1 F1350 X179.885 Y177.623 E171.63458
G0 F7200 X177.848 Y177.848
G1 F1350 X58.478 Y58.478 E185.1101
G0 F7200 X58.478 Y60.741
G1 F1350 X175.6 Y177.862 E198.33178
G0 F7200 X173.337 Y177.862
G1 F1350 X58.478 Y63.003 E211.29806
G0 F7200 X58.478 Y65.266
G1 F1350 X171.074 Y177.862 E224.00887
G0 F7200 X168.811 Y177.862
G1 F1350 X58.478 Y67.529 E236.46421
G0 F7200 X58.478 Y69.792
G1 F1350 X166.549 Y177.862 E248.66415
G0 F7200 X164.286 Y177.862
G1 F1350 X58.478 Y72.054 E260.60867
G0 F7200 X58.478 Y74.317
G1 F1350 X162.023 Y177.862 E272.29772
G0 F7200 X159.76 Y177.862
G1 F1350 X58.478 Y76.58 E283.73131
G0 F7200 X58.478 Y78.843
G1 F1350 X157.498 Y177.862 E294.90949
G0 F7200 X155.235 Y177.862
G1 F1350 X58.478 Y81.105 E305.83225
G0 F7200 X58.478 Y83.368
G1 F1350 X152.972 Y177.862 E316.49955
G0 F7200 X150.709 Y177.862
G1 F1350 X58.478 Y85.631 E326.91138
G0 F7200 X58.478 Y87.894
G1 F1350 X148.447 Y177.862 E337.0678
G0 F7200 X146.184 Y177.862
G1 F1350 X58.478 Y90.156 E346.96882
G0 F7200 X58.478 Y92.419
G1 F1350 X143.921 Y177.862 E356.61436
G0 F7200 X141.658 Y177.862
G1 F1350 X58.478 Y94.682 E366.00444
G0 F7200 X58.478 Y96.945
G1 F1350 X139.396 Y177.862 E375.1391
G0 F7200 X137.133 Y177.862
G1 F1350 X58.478 Y99.207 E384.01836
G0 F7200 X58.478 Y101.47
G1 F1350 X134.87 Y177.862 E392.64215
G0 F7200 X132.607 Y177.862
G1 F1350 X58.478 Y103.733 E401.01047
G0 F7200 X58.478 Y105.996
G1 F1350 X130.345 Y177.862 E409.12338
G0 F7200 X128.082 Y177.862
G1 F1350 X58.478 Y108.258 E416.98088
G0 F7200 X58.478 Y110.521
G1 F1350 X125.819 Y177.862 E424.58292
G0 F7200 X123.556 Y177.862
G1 F1350 X58.478 Y112.784 E431.92949
G0 F7200 X58.478 Y115.046
G1 F1350 X121.293 Y177.862 E439.02064
G0 F7200 X119.03 Y177.862
G1 F1350 X58.478 Y117.309 E445.85633
G0 F7200 X58.478 Y119.572
G1 F1350 X116.768 Y177.862 E452.43661
G0 F7200 X114.505 Y177.862
G1 F1350 X58.478 Y121.835 E458.76142
G0 F7200 X58.478 Y124.097
G1 F1350 X112.242 Y177.862 E464.83082
G0 F7200 X109.979 Y177.862
G1 F1350 X58.478 Y126.36 E470.64476
G0 F7200 X58.478 Y128.623
G1 F1350 X107.717 Y177.862 E476.20328
G0 F7200 X105.454 Y177.862
G1 F1350 X58.478 Y130.886 E481.50634
G0 F7200 X58.478 Y133.148
G1 F1350 X103.191 Y177.862 E486.55398
G0 F7200 X100.928 Y177.862
G1 F1350 X58.478 Y135.411 E491.34616
G0 F7200 X58.478 Y137.674
G1 F1350 X98.666 Y177.862 E495.88293
G0 F7200 X96.403 Y177.862
G1 F1350 X58.478 Y139.937 E500.16423
G0 F7200 X58.478 Y142.199
G1 F1350 X94.14 Y177.862 E504.19013
G0 F7200 X91.877 Y177.862
G1 F1350 X58.478 Y144.462 E507.96055
G0 F7200 X58.478 Y146.725
G1 F1350 X89.615 Y177.862 E511.47556
G0 F7200 X87.352 Y177.862
G1 F1350 X58.478 Y148.988 E514.73511
G0 F7200 X58.478 Y151.25
G1 F1350 X85.089 Y177.862 E517.73925
G0 F7200 X82.826 Y177.862
G1 F1350 X58.478 Y153.513 E520.48792
G0 F7200 X58.478 Y155.776
G1 F1350 X80.564 Y177.862 E522.98117
G0 F7200 X78.301 Y177.862
G1 F1350 X58.478 Y158.039 E525.21897
G0 F7200 X58.478 Y160.301
G1 F1350 X76.038 Y177.862 E527.20135
G0 F7200 X73.775 Y177.862
G1 F1350 X58.478 Y162.564 E528.92826
G0 F7200 X58.542 Y164.89
G1 F1350 X71.454 Y177.803 E530.38594
G0 F7200 X68.667 Y177.279
G1 F1350 X59.073 Y167.684 E531.46905
G0 F7200 X61.395 Y172.27
G1 F1350 X64.098 Y174.972 E531.77413
G0 F7200 X190.782 Y168.154
G1 F1350 X60.957 Y38.33 E546.42984
G0 F7200 X61.943 Y37.053
G1 F1350 X191.252 Y166.362 E561.02736
G0 F7200 X191.495 Y164.342
G1 F1350 X63.06 Y35.907 E575.52621
G0 F7200 X64.297 Y34.882
G1 F1350 X191.521 Y162.105 E589.8883
G0 F7200 X191.521 Y159.842
G1 F1350 X65.675 Y33.996 E604.09488
G0 F7200 X67.189 Y33.248
G1 F1350 X191.521 Y157.58 E618.13055
G0 F7200 X191.521 Y155.317
G1 F1350 X68.869 Y32.665 E631.97657
G0 F7200 X70.745 Y32.278
G1 F1350 X191.521 Y153.054 E645.61081
G0 F7200 X191.521 Y150.791
G1 F1350 X72.865 Y32.136 E659.00567
G0 F7200 X75.128 Y32.136
G1 F1350 X191.521 Y148.529 E672.14511
G0 F7200 X191.521 Y146.266
G1 F1350 X77.391 Y32.136 E685.02909
G0 F7200 X79.654 Y32.136
G1 F1350 X191.521 Y144.003 E697.65761
G0 F7200 X191.521 Y141.74
G1 F1350 X81.916 Y32.136 E710.03071
G0 F7200 X84.179 Y32.136
G1 F1350 X191.521 Y139.478 E722.1484
G0 F7200 X191.521 Y137.215
G1 F1350 X86.442 Y32.136 E734.01063
G0 F7200 X88.705 Y32.136
G1 F1350 X191.521 Y134.952 E745.61739
G0 F7200 X191.521 Y132.69
G1 F1350 X90.967 Y32.136 E756.96879
G0 F7200 X93.23 Y32.136
G1 F1350 X191.521 Y130.427 E768.06473
G0 F7200 X191.521 Y128.164
G1 F1350 X95.493 Y32.136 E778.9052
G0 F7200 X97.756 Y32.136
G1 F1350 X191.521 Y125.901 E789.4902
G0 F7200 X191.521 Y123.639
G1 F1350 X100.018 Y32.136 E799.81985
G0 F7200 X102.281 Y32.136
G1 F1350 X191.521 Y121.376 E809.89404
G0 F7200 X191.521 Y119.113
G1 F1350 X104.544 Y32.136 E819.71275
G0 F7200 X106.807 Y32.136
G1 F1350 X191.521 Y116.85 E829.276
G0 F7200 X191.521 Y114.588
G1 F1350 X109.069 Y32.136 E838.58389
G0 F7200 X111.332 Y32.136
G1 F1350 X191.521 Y112.325 E847.63632
G0 F7200 X191.521 Y110.062
G1 F1350 X113.595 Y32.136 E856.43328
G0 F7200 X115.858 Y32.136
G1 F1350 X191.521 Y107.799 E864.97477
G0 F7200 X191.521 Y105.537
G1 F1350 X118.12 Y32.136 E873.26091
G0 F7200 X120.383 Y32.136
G1 F1350 X191.521 Y103.274 E881.29159
G0 F7200 X191.521 Y101.011
G1 F1350 X122.646 Y32.136 E889.06679
G0 F7200 X124.908 Y32.136
G1 F1350 X191.521 Y98.748 E896.58659
G0 F7200 X191.521 Y96.486
G1 F1350 X127.171 Y32.136 E903.85097
G0 F7200 X129.434 Y32.136
G1 F1350 X191.521 Y94.223 E910.85989
G0 F7200 X191.521 Y91.96
G1 F1350 X131.697 Y32.136 E917.61334
G0 F7200 X133.959 Y32.136
G1 F1350 X191.521 Y89.697 E924.11138
G0 F7200 X191.521 Y87.435
G1 F1350 X136.222 Y32.136 E930.35401
G0 F7200 X138.485 Y32.136
G1 F1350 X191.521 Y85.172 E936.34117
G0 F7200 X191.521 Y82.909
G1 F1350 X140.748 Y32.136 E942.07286
G0 F7200 X143.01 Y32.136
G1 F1350 X191.521 Y80.646 E947.54915
G0 F7200 X191.521 Y78.384
G1 F1350 X145.273 Y32.136 E952.77002
G0 F7200 X147.536 Y32.136
G1 F1350 X191.521 Y76.121 E957.73543
G0 F7200 X191.521 Y73.858
G1 F1350 X149.799 Y32.136 E962.44537
G0 F7200 X152.061 Y32.136
G1 F1350 X191.521 Y71.595 E966.8999
G0 F7200 X191.521 Y69.333
G1 F1350 X154.324 Y32.136 E971.09902
G0 F7200 X156.587 Y32.136
G1 F1350 X191.521 Y67.07 E975.04267
G0 F7200 X191.521 Y64.807
G1 F1350 X158.85 Y32.136 E978.73085
G0 F7200 X161.112 Y32.136
G1 F1350 X191.521 Y62.545 E982.16368
G0 F7200 X191.521 Y60.282
G1 F1350 X163.375 Y32.136 E985.34105
G0 F7200 X165.638 Y32.136
G1 F1350 X191.521 Y58.019 E988.26294
G0 F7200 X191.521 Y55.756
G1 F1350 X167.901 Y32.136 E990.92937
G0 F7200 X170.163 Y32.136
G1 F1350 X191.521 Y53.494 E993.34045
G0 F7200 X191.521 Y51.231
G1 F1350 X172.426 Y32.136 E995.49606
G0 F7200 X174.689 Y32.136
G1 F1350 X191.521 Y48.968 E997.3962
G0 F7200 X191.521 Y46.705
G1 F1350 X176.952 Y32.136 E999.04087
G0 F7200 X179.371 Y32.292
G1 F1350 X191.362 Y44.283 E1000.39452
G0 F7200 X190.549 Y41.208
M104 S200
G1 F1350 X182.43 Y33.089 E1001.31106
G0 F600 X182.43 Y33.089 Z1.14
G0 F7200 X62.754 Y36.182
;TIME_ELAPSED:574.600297
;LAYER:-4
;TYPE:SUPPORT
G1 F1350 X62.16 Y36.799 E1001.56744
G1 X61.973 Y37.021 E1001.65433
G1 X63.476 Y35.518 E1002.29059
G1 X64.401 Y34.797 E1002.64166
G1 X65.207 Y34.261 E1002.93141
G1 X66.181 Y33.709 E1003.26654
G1 X67.16 Y33.249 E1003.59033
G1 X59.619 Y40.79 E1006.78268
G1 X59.39 Y41.335 E1006.95964
G1 X59.072 Y42.271 E1007.25555
G1 X58.907 Y42.915 E1007.45455
G1 X69.266 Y32.557 E1011.83964
G1 X70.014 Y32.389 E1012.06913
G1 X70.996 Y32.241 E1012.3664
G1 X58.59 Y44.646 E1017.61805
G1 X58.513 Y45.372 E1017.83659
G1 X58.484 Y46.167 E1018.07472
G1 X72.515 Y32.135 E1024.01471
G1 X73.93 Y32.135 E1024.43828
G1 X58.477 Y47.588 E1030.98004
G1 X58.477 Y49.002 E1031.4033
G1 X75.344 Y32.135 E1038.54365
G1 X76.758 Y32.135 E1038.96692
G1 X58.477 Y50.416 E1046.70586
G1 X58.477 Y51.83 E1047.12913
G1 X78.172 Y32.135 E1055.46666
G1 X79.586 Y32.135 E1055.88993
G1 X58.477 Y53.245 E1064.82626
G1 X58.477 Y54.659 E1065.24953
G1 X81.001 Y32.135 E1074.78467
G1 X82.415 Y32.135 E1075.20794
G1 X58.477 Y56.073 E1085.34167
G1 X58.477 Y57.487 E1085.76494
G1 X83.829 Y32.135 E1096.49726
G1 X85.243 Y32.135 E1096.92053
G1 X58.477 Y58.901 E1108.25145
G1 X58.477 Y60.316 E1108.67501
G1 X86.658 Y32.135 E1120.60494
G1 X88.072 Y32.135 E1121.02821
G1 X58.477 Y61.73 E1133.55674
G1 X58.477 Y63.144 E1133.98
G1 X89.486 Y32.135 E1147.10712
G1 X90.9 Y32.135 E1147.53039
G1 X58.477 Y64.558 E1161.25609
G1 X58.477 Y65.973 E1161.67966
G1 X92.314 Y32.135 E1176.00417
G1 X93.729 Y32.135 E1176.42774
G1 X58.477 Y67.387 E1191.35105
G1 X58.477 Y68.801 E1191.77432
G1 X95.143 Y32.135 E1207.29623
G1 X96.557 Y32.135 E1207.7195
G1 X58.477 Y70.215 E1223.84
G1 X58.477 Y71.629 E1224.26326
G1 X97.971 Y32.135 E1240.98235
G1 X99.385 Y32.135 E1241.40562
G1 X58.477 Y73.044 E1258.72352
G1 X58.477 Y74.458 E1259.14678
G1 X100.8 Y32.135 E1277.06348
G1 X102.214 Y32.135 E1277.48675
G1 X58.477 Y75.872 E1296.00204
G1 X58.477 Y77.286 E1296.42531
G1 X103.628 Y32.135 E1315.53919
G1 X105.042 Y32.135 E1315.96246
G1 X58.477 Y78.7 E1335.67493
G1 X58.477 Y80.115 E1336.0985
G1 X106.457 Y32.135 E1356.40999
G1 X107.871 Y32.135 E1356.83326
G1 X58.477 Y81.529 E1377.74334
G1 X58.477 Y82.943 E1378.16661
G1 X109.285 Y32.135 E1399.67528
G1 X110.699 Y32.135 E1400.09855
G1 X58.477 Y84.357 E1422.20581
G1 X58.477 Y85.772 E1422.62938
G1 X112.113 Y32.135 E1445.33545
G1 X113.528 Y32.135 E1445.75902
G1 X58.477 Y87.186 E1469.06389
G1 X58.477 Y88.6 E1469.48716
G1 X114.942 Y32.135 E1493.39062
G1 X116.356 Y32.135 E1493.81389
G1 X58.477 Y90.014 E1518.31595
G1 X58.477 Y91.428 E1518.73922
G1 X117.77 Y32.135 E1543.83986
G1 X119.184 Y32.135 E1544.26313
G1 X58.477 Y92.843 E1569.96258
G1 X58.477 Y94.257 E1570.38585
G1 X120.599 Y32.135 E1596.68411
G1 X122.013 Y32.135 E1597.10738
G1 X58.477 Y95.671 E1624.00422
G1 X58.477 Y97.085 E1624.42749
G1 X123.427 Y32.135 E1651.92293
G1 X124.841 Y32.135 E1652.3462
G1 X58.477 Y98.499 E1680.44023
G1 X58.477 Y99.914 E1680.8638
G1 X126.256 Y32.135 E1709.55685
G1 X127.67 Y32.135 E1709.98012
G1 X58.477 Y101.328 E1739.27176
G1 X58.477 Y102.742 E1739.69502
G1 X129.084 Y32.135 E1769.58526
G1 X130.498 Y32.135 E1770.00852
G1 X58.477 Y104.156 E1800.49735
G1 X58.478 Y105.57 E1800.92062
G1 X131.912 Y32.135 E1832.00782
G1 X133.327 Y32.135 E1832.43139
G1 X58.478 Y106.984 E1864.11739
G1 X58.478 Y108.398 E1864.54066
G1 X134.741 Y32.135 E1896.82526
G1 X136.155 Y32.135 E1897.24853
G1 X58.478 Y109.812 E1930.13172
G1 X58.478 Y111.227 E1930.55529
G1 X137.569 Y32.135 E1964.03729
G1 X138.983 Y32.135 E1964.46055
G1 X58.478 Y112.641 E1998.54114
G1 X58.478 Y114.055 E1998.96441
G1 X140.398 Y32.135 E2033.6438
G1 X141.812 Y32.135 E2034.06707
G1 X58.478 Y115.469 E2069.34505
G1 X58.478 Y116.884 E2069.76862
G1 X143.226 Y32.135 E2105.64541
G1 X144.64 Y32.135 E2106.06867
G1 X58.478 Y118.298 E2142.54405
G1 X58.478 Y119.712 E2142.96732
G1 X146.055 Y32.135 E2180.0415
G1 X147.469 Y32.135 E2180.46477
G1 X58.478 Y121.126 E2218.13755
G1 X58.478 Y122.54 E2218.56081
G1 X148.883 Y32.135 E2256.83218
G1 X150.297 Y32.135 E2257.25545
G1 X58.478 Y123.955 E2296.12562
G1 X58.478 Y125.369 E2296.54889
G1 X151.711 Y32.135 E2336.01765
G1 X153.126 Y32.135 E2336.44122
G1 X58.478 Y126.783 E2376.50878
G1 X58.478 Y128.197 E2376.93205
G1 X154.54 Y32.135 E2417.59821
G1 X155.954 Y32.135 E2418.02148
G1 X58.478 Y129.611 E2459.28623
G1 X58.478 Y131.026 E2459.70979
G1 X157.368 Y32.135 E2501.57335
G1 X158.782 Y32.135 E2501.99662
G1 X58.478 Y132.44 E2544.45876
G1 X58.478 Y133.854 E2544.88203
G1 X160.197 Y32.135 E2587.94298
G1 X161.611 Y32.135 E2588.36625
G1 X58.478 Y135.268 E2632.02579
G1 X58.478 Y136.683 E2632.44936
G1 X163.025 Y32.135 E2676.7077
G1 X164.439 Y32.135 E2677.13097
G1 X58.478 Y138.097 E2721.98791
G1 X58.478 Y139.511 E2722.41118
G1 X165.854 Y32.135 E2767.86692
G1 X167.268 Y32.135 E2768.29018
G1 X58.478 Y140.925 E2814.34452
G1 X58.478 Y142.339 E2814.76779
G1 X168.682 Y32.135 E2861.42071
G1 X170.096 Y32.135 E2861.84398
G1 X58.478 Y143.754 E2909.09571
G1 X58.478 Y145.168 E2909.51898
G1 X171.51 Y32.135 E2957.3693
G1 X172.925 Y32.135 E2957.79286
G1 X58.478 Y146.582 E3006.24199
G1 X58.478 Y147.996 E3006.66526
G1 X174.339 Y32.135 E3055.71297
G1 X175.753 Y32.135 E3056.13624
G1 X58.478 Y149.41 E3105.78255
