;FLAVOR:Marlin
;TIME:18381
;Filament used: 38.2436m
;Layer height: 0.3
;Generated with Cura_SteamEngine 1.1.0
M190 S35
M104 S220
M109 S220
G28
G1 Z50.00 F400
G92 E0
G1 F200 E3
G92 E0
M132 X Y Z A
M907 X100 Y100 Z50 A100
;LAYER_COUNT:69
;LAYER:-5
M107
G0 F2571.4 X64.864 Y68.507 Z0.24
G1 F1575 X-64.884 Y68.507 E10.35705
G1 X-65.946 Y68.469 E10.44187
G1 X-67.034 Y68.348 E10.52926
G1 X-68.056 Y68.16 E10.61221
G1 X-69.08 Y67.892 E10.6967
G1 X-70.119 Y67.538 E10.78432
G1 X-71.078 Y67.131 E10.86748
G1 X-72.036 Y66.639 E10.95345
G1 X-72.943 Y66.085 E11.03829
G1 X-73.813 Y65.463 E11.12366
G1 X-74.624 Y64.786 E11.20798
G1 X-75.223 Y64.221 E11.27371
G1 X-75.32 Y64.124 E11.28466
G1 X-76.065 Y63.323 E11.37198
G1 X-76.717 Y62.508 E11.4553
G1 X-77.324 Y61.626 E11.54076
G1 X-77.867 Y60.698 E11.62659
G1 X-78.336 Y59.747 E11.71123
G1 X-78.733 Y58.761 E11.79608
G1 X-79.058 Y57.75 E11.88085
G1 X-79.312 Y56.707 E11.96654
G1 X-79.489 Y55.638 E12.05303
G1 X-79.583 Y54.604 E12.13591
G1 X-79.606 Y53.776 E12.20203
G1 X-79.606 Y-53.793 E20.78866
G1 X-79.568 Y-54.848 E20.87293
G1 X-79.447 Y-55.937 E20.96039
G1 X-79.259 Y-56.957 E21.04318
G1 X-78.991 Y-57.981 E21.12767
G1 X-78.635 Y-59.026 E21.2158
G1 X-78.23 Y-59.979 E21.29846
G1 X-77.738 Y-60.937 E21.38442
G1 X-77.184 Y-61.844 E21.46926
G1 X-76.562 Y-62.714 E21.55463
G1 X-75.885 Y-63.525 E21.63896
G1 X-75.32 Y-64.124 E21.70469
G1 X-75.226 Y-64.218 E21.7153
G1 X-74.422 Y-64.966 E21.80296
G1 X-73.607 Y-65.618 E21.88627
G1 X-72.725 Y-66.225 E21.97174
G1 X-71.797 Y-66.768 E22.05757
G1 X-70.846 Y-67.237 E22.14221
G1 X-69.86 Y-67.634 E22.22706
G1 X-68.849 Y-67.959 E22.31183
G1 X-67.806 Y-68.213 E22.39752
G1 X-66.742 Y-68.389 E22.4836
G1 X-65.703 Y-68.484 E22.56689
G1 X-64.864 Y-68.507 E22.63388
G1 X64.884 Y-68.507 E32.99093
G1 X65.946 Y-68.469 E33.07576
G1 X67.034 Y-68.348 E33.16314
G1 X68.056 Y-68.16 E33.24609
G1 X69.08 Y-67.892 E33.33058
G1 X70.119 Y-67.538 E33.4182
G1 X71.078 Y-67.131 E33.50136
G1 X72.036 Y-66.639 E33.58733
G1 X72.943 Y-66.085 E33.67217
G1 X73.813 Y-65.463 E33.75754
G1 X74.624 Y-64.786 E33.84187
G1 X75.223 Y-64.221 E33.9076
G1 X75.317 Y-64.127 E33.91821
G1 X76.065 Y-63.323 E34.00587
G1 X76.717 Y-62.508 E34.08918
G1 X77.324 Y-61.626 E34.17465
G1 X77.867 Y-60.698 E34.26047
G1 X78.336 Y-59.747 E34.34512
G1 X78.733 Y-58.761 E34.42996
G1 X79.058 Y-57.75 E34.51473
G1 X79.312 Y-56.707 E34.60042
G1 X79.489 Y-55.638 E34.68692
G1 X79.583 Y-54.608 E34.76948
G1 X79.606 Y-53.776 E34.83592
G1 X79.606 Y53.793 E43.42254
G1 X79.568 Y54.848 E43.50681
G1 X79.447 Y55.935 E43.59411
G1 X79.259 Y56.957 E43.67706
G1 X78.991 Y57.981 E43.76156
G1 X78.637 Y59.02 E43.84918
G1 X78.23 Y59.979 E43.93234
G1 X77.739 Y60.934 E44.01805
G1 X77.184 Y61.844 E44.10314
G1 X76.562 Y62.714 E44.18851
G1 X75.885 Y63.525 E44.27284
G1 X75.32 Y64.124 E44.33857
G1 X75.226 Y64.218 E44.34918
G1 X74.422 Y64.966 E44.43684
G1 X73.607 Y65.618 E44.52015
G1 X72.725 Y66.225 E44.60562
G1 X71.797 Y66.768 E44.69144
G1 X70.846 Y67.237 E44.77609
G1 X69.86 Y67.634 E44.86093
G1 X68.849 Y67.959 E44.9457
G1 X67.806 Y68.213 E45.03139
G1 X66.742 Y68.389 E45.11748
G1 X65.703 Y68.484 E45.20076
G1 X64.864 Y68.507 E45.26776
G0 F2571.4 X65.6 Y68.487
G1 F1575 X65.6 Y-68.481 E56.20114
G0 F2571.4 X64 Y-68.507
G1 F1575 X64 Y68.507 E67.13819
G0 F2571.4 X62.4 Y68.507
G1 F1575 X62.4 Y-68.507 E78.07524
G0 F2571.4 X60.8 Y-68.507
G1 F1575 X60.8 Y68.507 E89.01229
G0 F2571.4 X59.2 Y68.507
G1 F1575 X59.2 Y-68.507 E99.94934
G0 F2571.4 X57.6 Y-68.507
G1 F1575 X57.6 Y68.507 E110.88639
G0 F2571.4 X56 Y68.507
G1 F1575 X56 Y-68.507 E121.82344
G0 F2571.4 X54.4 Y-68.507
G1 F1575 X54.4 Y68.507 E132.76049
G0 F2571.4 X52.8 Y68.507
G1 F1575 X52.8 Y-68.507 E143.69754
G0 F2571.4 X51.2 Y-68.507
G1 F1575 X51.2 Y68.507 E154.63459
G0 F2571.4 X49.6 Y68.507
G1 F1575 X49.6 Y-68.507 E165.57164
G0 F2571.4 X48 Y-68.507
G1 F1575 X48 Y68.507 E176.50869
G0 F2571.4 X46.4 Y68.507
G1 F1575 X46.4 Y-68.507 E187.44574
G0 F2571.4 X44.8 Y-68.507
G1 F1575 X44.8 Y68.507 E198.38279
G0 F2571.4 X43.2 Y68.507
G1 F1575 X43.2 Y-68.507 E209.31984
G0 F2571.4 X41.6 Y-68.507
G1 F1575 X41.6 Y68.507 E220.25689
G0 F2571.4 X40 Y68.507
G1 F1575 X40 Y-68.507 E231.19394
G0 F2571.4 X38.4 Y-68.507
G1 F1575 X38.4 Y68.507 E242.13099
G0 F2571.4 X36.8 Y68.507
G1 F1575 X36.8 Y-68.507 E253.06804
G0 F2571.4 X35.2 Y-68.507
G1 F1575 X35.2 Y68.507 E264.00509
G0 F2571.4 X33.6 Y68.507
G1 F1575 X33.6 Y-68.507 E274.94214
G0 F2571.4 X32 Y-68.507
G1 F1575 X32 Y68.507 E285.87919
G0 F2571.4 X30.4 Y68.507
G1 F1575 X30.4 Y-68.507 E296.81624
G0 F2571.4 X28.8 Y-68.507
G1 F1575 X28.8 Y68.507 E307.75329
G0 F2571.4 X27.2 Y68.507
G1 F1575 X27.2 Y-68.507 E318.69034
G0 F2571.4 X25.6 Y-68.507
G1 F1575 X25.6 Y68.507 E329.62739
G0 F2571.4 X24 Y68.507
G1 F1575 X24 Y-68.507 E340.56444
G0 F2571.4 X22.4 Y-68.507
G1 F1575 X22.4 Y68.507 E351.50149
G0 F2571.4 X20.8 Y68.507
G1 F1575 X20.8 Y-68.507 E362.43854
G0 F2571.4 X19.2 Y-68.507
G1 F1575 X19.2 Y68.507 E373.37559
G0 F2571.4 X17.6 Y68.507
G1 F1575 X17.6 Y-68.507 E384.31264
G0 F2571.4 X16 Y-68.507
G1 F1575 X16 Y68.507 E395.24969
G0 F2571.4 X14.4 Y68.507
G1 F1575 X14.4 Y-68.507 E406.18674
G0 F2571.4 X12.8 Y-68.507
G1 F1575 X12.8 Y68.507 E417.12379
G0 F2571.4 X11.2 Y68.507
G1 F1575 X11.2 Y-68.507 E428.06084
G0 F2571.4 X9.6 Y-68.507
G1 F1575 X9.6 Y68.507 E438.99789
G0 F2571.4 X8 Y68.507
G1 F1575 X8 Y-68.507 E449.93494
G0 F2571.4 X6.4 Y-68.507
G1 F1575 X6.4 Y68.507 E460.87199
G0 F2571.4 X4.8 Y68.507
G1 F1575 X4.8 Y-68.507 E471.80904
G0 F2571.4 X3.2 Y-68.507
G1 F1575 X3.2 Y68.507 E482.74609
G0 F2571.4 X1.6 Y68.507
G1 F1575 X1.6 Y-68.507 E493.68314
G0 F2571.4 X0.00 Y-68.507
G1 F1575 X0.00 Y68.507 E504.62019
G0 F2571.4 X-1.6 Y68.507
G1 F1575 X-1.6 Y-68.507 E515.55724
G0 F2571.4 X-3.2 Y-68.507
G1 F1575 X-3.2 Y68.507 E526.49429
G0 F2571.4 X-4.8 Y68.507
G1 F1575 X-4.8 Y-68.507 E537.43134
G0 F2571.4 X-6.4 Y-68.507
G1 F1575 X-6.4 Y68.507 E548.36839
G0 F2571.4 X-8 Y68.507
G1 F1575 X-8 Y-68.507 E559.30544
G0 F2571.4 X-9.6 Y-68.507
G1 F1575 X-9.6 Y68.507 E570.24249
G0 F2571.4 X-11.2 Y68.507
G1 F1575 X-11.2 Y-68.507 E581.17954
G0 F2571.4 X-12.8 Y-68.507
G1 F1575 X-12.8 Y68.507 E592.11659
G0 F2571.4 X-14.4 Y68.507
G1 F1575 X-14.4 Y-68.507 E603.05364
G0 F2571.4 X-16 Y-68.507
G1 F1575 X-16 Y68.507 E613.99069
G0 F2571.4 X-17.6 Y68.507
G1 F1575 X-17.6 Y-68.507 E624.92774
G0 F2571.4 X-19.2 Y-68.507
G1 F1575 X-19.2 Y68.507 E635.86479
G0 F2571.4 X-20.8 Y68.507
G1 F1575 X-20.8 Y-68.507 E646.80184
G0 F2571.4 X-22.4 Y-68.507
G1 F1575 X-22.4 Y68.507 E657.73889
G0 F2571.4 X-24 Y68.507
G1 F1575 X-24 Y-68.507 E668.67594
G0 F2571.4 X-25.6 Y-68.507
G1 F1575 X-25.6 Y68.507 E679.61299
G0 F2571.4 X-27.2 Y68.507
G1 F1575 X-27.2 Y-68.507 E690.55004
G0 F2571.4 X-28.8 Y-68.507
G1 F1575 X-28.8 Y68.507 E701.48709
G0 F2571.4 X-30.4 Y68.507
G1 F1575 X-30.4 Y-68.507 E712.42414
G0 F2571.4 X-32 Y-68.507
G1 F1575 X-32 Y68.507 E723.36119
G0 F2571.4 X-33.6 Y68.507
G1 F1575 X-33.6 Y-68.507 E734.29824
G0 F2571.4 X-35.2 Y-68.507
G1 F1575 X-35.2 Y68.507 E745.23529
G0 F2571.4 X-36.8 Y68.507
G1 F1575 X-36.8 Y-68.507 E756.17234
G0 F2571.4 X-38.4 Y-68.507
G1 F1575 X-38.4 Y68.507 E767.10939
G0 F2571.4 X-40 Y68.507
G1 F1575 X-40 Y-68.507 E778.04644
G0 F2571.4 X-41.6 Y-68.507
G1 F1575 X-41.6 Y68.507 E788.98349
G0 F2571.4 X-43.2 Y68.507
G1 F1575 X-43.2 Y-68.507 E799.92054
G0 F2571.4 X-44.8 Y-68.507
G1 F1575 X-44.8 Y68.507 E810.85759
G0 F2571.4 X-46.4 Y68.507
G1 F1575 X-46.4 Y-68.507 E821.79464
G0 F2571.4 X-48 Y-68.507
G1 F1575 X-48 Y68.507 E832.73169
G0 F2571.4 X-49.6 Y68.507
G1 F1575 X-49.6 Y-68.507 E843.66874
G0 F2571.4 X-51.2 Y-68.507
G1 F1575 X-51.2 Y68.507 E854.60579
G0 F2571.4 X-52.8 Y68.507
G1 F1575 X-52.8 Y-68.507 E865.54284
G0 F2571.4 X-54.4 Y-68.507
G1 F1575 X-54.4 Y68.507 E876.47989
G0 F2571.4 X-56 Y68.507
G1 F1575 X-56 Y-68.507 E887.41694
G0 F2571.4 X-57.6 Y-68.507
G1 F1575 X-57.6 Y68.507 E898.35399
G0 F2571.4 X-59.2 Y68.507
G1 F1575 X-59.2 Y-68.507 E909.29104
G0 F2571.4 X-60.8 Y-68.507
G1 F1575 X-60.8 Y68.507 E920.22809
G0 F2571.4 X-62.4 Y68.507
G1 F1575 X-62.4 Y-68.507 E931.16514
G0 F2571.4 X-64 Y-68.507
G1 F1575 X-64 Y68.507 E942.10219
G0 F2571.4 X-65.6 Y68.481
G1 F1575 X-65.6 Y-68.487 E953.03556
G0 F2571.4 X-67.2 Y-68.314
G1 F1575 X-67.2 Y68.317 E963.94204
G0 F2571.4 X-68.8 Y67.965
G1 F1575 X-68.8 Y-67.971 E974.79304
G0 F2571.4 X-70.4 Y-67.417
G1 F1575 X-70.4 Y67.418 E985.55615
G0 F2571.4 X-72 Y66.657
G1 F1575 X-72 Y-66.65 E996.19729
G0 F2571.4 X-73.6 Y-65.623
G1 F1575 X-73.6 Y65.615 E1006.67328
G0 F2571.4 X-75.2 Y64.242
G1 F1575 X-75.2 Y-64.243 E1016.92951
G0 F2571.4 X-76.8 Y-62.382
G1 F1575 X-76.8 Y62.387 E1026.88911
G0 F2571.4 X-78.4 Y59.588
G1 F1575 X-78.4 Y-59.579 E1036.40153
G0 F2571.4 X67.2 Y-68.317
G1 F1575 X67.2 Y68.314 E1047.30801
G0 F2571.4 X68.8 Y67.971
G1 F1575 X68.8 Y-67.965 E1058.15901
G0 F2571.4 X70.4 Y-67.418
G1 F1575 X70.4 Y67.417 E1068.92212
G0 F2571.4 X72 Y66.65
G1 F1575 X72 Y-66.657 E1079.56326
G0 F2571.4 X73.6 Y-65.615
G1 F1575 X73.6 Y65.623 E1090.03925
G0 F2571.4 X75.2 Y64.243
G1 F1575 X75.2 Y-64.242 E1100.29548
G0 F2571.4 X76.8 Y-62.387
G1 F1575 X76.8 Y62.382 E1110.25508
G0 F2571.4 X78.4 Y59.579
G1 F1575 X78.4 Y-59.588 E1119.7675
G0 F2571.4 X0.623 Y68.505
;TIME_ELAPSED:547.966461
;LAYER:-4
M140 S35
M107
G0 X0.623 Y68.505 Z0.689
;TYPE:SUPPORT
G1 F1575 X-.79 Y68.505 E1119.97852
G1 X-79.605 Y-10.308 E1136.62371
G1 X-79.605 Y-8.894 E1136.83487
G1 X-2.204 Y68.505 E1153.18143
G1 X-3.618 Y68.505 E1153.39259
G1 X-79.605 Y-7.48 E1169.44052
G1 X-79.605 Y-6.066 E1169.65168
G1 X-5.033 Y68.505 E1185.40087
G1 X-6.447 Y68.505 E1185.61204
G1 X-79.605 Y-4.652 E1201.0626
G1 X-79.605 Y-3.237 E1201.27391
G1 X-7.861 Y68.505 E1216.42573
G1 X-9.275 Y68.505 E1216.63689
G1 X-79.605 Y-1.823 E1231.49009
G1 X-79.605 Y-.409 E1231.70125
G1 X-10.69 Y68.505 E1246.25571
G1 X-12.104 Y68.505 E1246.46687
G1 X-79.605 Y1.004 E1260.7228
G1 X-79.605 Y2.419 E1260.93411
G1 X-13.518 Y68.505 E1274.89131
G1 X-14.932 Y68.505 E1275.10247
G1 X-79.605 Y3.833 E1288.76103
G1 X-79.605 Y5.247 E1288.9722
G1 X-16.346 Y68.505 E1302.33213
G1 X-17.761 Y68.505 E1302.54344
G1 X-79.605 Y6.661 E1315.60464
G1 X-79.605 Y8.075 E1315.8158
G1 X-19.175 Y68.505 E1328.57837
G1 X-20.589 Y68.505 E1328.78953
G1 X-79.605 Y9.49 E1341.25336
G1 X-79.605 Y10.904 E1341.46452
G1 X-22.003 Y68.505 E1353.62972
G1 X-23.417 Y68.505 E1353.84088
G1 X-79.605 Y12.318 E1365.70745
G1 X-79.605 Y13.732 E1365.91861
G1 X-24.832 Y68.505 E1377.48644
G1 X-26.246 Y68.505 E1377.69761
G1 X-79.605 Y15.146 E1388.9668
G1 X-79.605 Y16.561 E1389.17812
G1 X-27.66 Y68.505 E1400.14858
G1 X-29.074 Y68.505 E1400.35974
G1 X-79.605 Y17.975 E1411.03157
G1 X-79.605 Y19.389 E1411.24274
G1 X-30.489 Y68.505 E1421.61583
G1 X-31.903 Y68.505 E1421.827
G1 X-79.605 Y20.803 E1431.90146
G1 X-79.605 Y22.218 E1432.11277
G1 X-33.317 Y68.505 E1441.8885
G1 X-34.731 Y68.505 E1442.09966
G1 X-79.605 Y23.632 E1451.57676
G1 X-79.605 Y25.046 E1451.78792
G1 X-36.145 Y68.505 E1460.96639
G1 X-37.56 Y68.505 E1461.1777
G1 X-79.605 Y26.46 E1470.05743
G1 X-79.605 Y27.874 E1470.2686
G1 X-38.974 Y68.505 E1478.84969
G1 X-40.388 Y68.505 E1479.06086
G1 X-79.605 Y29.289 E1487.34322
G1 X-79.605 Y30.703 E1487.55438
G1 X-41.802 Y68.505 E1495.53811
G1 X-43.216 Y68.505 E1495.74928
G1 X-79.605 Y32.117 E1503.43438
G1 X-79.605 Y33.531 E1503.64554
G1 X-44.631 Y68.505 E1511.0319
G1 X-46.045 Y68.505 E1511.24307
G1 X-79.605 Y34.945 E1518.3308
G1 X-79.605 Y36.36 E1518.54211
G1 X-47.459 Y68.505 E1525.33111
G1 X-48.873 Y68.505 E1525.54227
G1 X-79.605 Y37.774 E1532.03264
G1 X-79.605 Y39.188 E1532.2438
G1 X-50.288 Y68.505 E1538.43543
G1 X-51.702 Y68.505 E1538.64659
G1 X-79.605 Y40.602 E1544.53959
G1 X-79.605 Y42.016 E1544.75076
G1 X-53.116 Y68.505 E1550.34512
G1 X-54.53 Y68.505 E1550.55629
G1 X-79.605 Y43.431 E1555.85192
G1 X-79.605 Y44.845 E1556.06308
G1 X-55.944 Y68.505 E1561.06008
G1 X-57.359 Y68.505 E1561.27139
G1 X-79.605 Y46.259 E1565.96965
G1 X-79.605 Y47.673 E1566.18082
G1 X-58.773 Y68.505 E1570.58045
G1 X-60.187 Y68.505 E1570.79161
G1 X-79.605 Y49.088 E1574.89251
G1 X-79.605 Y50.502 E1575.10367
G1 X-61.601 Y68.505 E1578.90594
G1 X-63.015 Y68.505 E1579.1171
G1 X-79.605 Y51.916 E1582.62073
G1 X-79.605 Y53.33 E1582.8319
G1 X-64.43 Y68.505 E1586.0368
G1 X-64.884 Y68.505 E1586.10459
G1 X-65.879 Y68.47 E1586.25328
G1 X-79.565 Y54.784 E1589.1437
G1 X-79.488 Y55.637 E1589.27161
G1 X-79.362 Y56.402 E1589.38739
G1 X-67.503 Y68.26 E1591.89186
G1 X-68.056 Y68.159 E1591.97581
G1 X-69.079 Y67.891 E1592.13373
G1 X-69.394 Y67.783 E1592.18346
G1 X-78.881 Y58.297 E1594.18697
G1 X-78.732 Y58.76 E1594.25961
G1 X-78.335 Y59.746 E1594.41834
G1 X-77.866 Y60.698 E1594.57683
G1 X-77.827 Y60.765 E1594.58841
G1 X-71.867 Y66.725 E1595.84713
G0 F2571.4 X0.623 Y68.505
G1 F1575 X-79.605 Y-11.723 E1612.79095
G1 X-79.605 Y-13.137 E1613.00212
G1 X2.037 Y68.505 E1630.24457
G1 X3.452 Y68.505 E1630.45588
G1 X-79.605 Y-14.551 E1647.99707
G1 X-79.605 Y-15.965 E1648.20823
G1 X4.866 Y68.505 E1666.04805
G1 X6.28 Y68.505 E1666.25921
G1 X-79.605 Y-17.379 E1684.39766
G1 X-79.605 Y-18.794 E1684.60898
G1 X7.694 Y68.505 E1703.04616
G1 X9.108 Y68.505 E1703.25732
G1 X-79.605 Y-20.208 E1721.99314
G1 X-79.605 Y-21.622 E1722.2043
G1 X10.523 Y68.505 E1741.23886
G1 X11.937 Y68.505 E1741.45002
G1 X-79.605 Y-23.036 E1760.7832
G1 X-79.605 Y-24.451 E1760.99452
G1 X13.351 Y68.505 E1780.62644
G1 X14.765 Y68.505 E1780.8376
G1 X-79.605 Y-25.865 E1800.76815
G1 X-79.605 Y-27.279 E1800.97932
G1 X16.18 Y68.505 E1821.2086
G1 X17.594 Y68.505 E1821.41977
G1 X-79.605 Y-28.693 E1841.94769
G1 X-79.605 Y-30.107 E1842.15885
G1 X19.008 Y68.505 E1862.9854
G1 X20.422 Y68.505 E1863.19656
G1 X-79.605 Y-31.522 E1884.32185
G1 X-79.605 Y-32.936 E1884.53301
G1 X21.836 Y68.505 E1905.95693
G1 X23.251 Y68.505 E1906.16824
G1 X-79.605 Y-34.35 E1927.8909
G1 X-79.605 Y-35.764 E1928.10206
G1 X24.665 Y68.505 E1950.12334
G1 X26.079 Y68.505 E1950.33451
G1 X-79.605 Y-37.178 E1972.65442
G1 X-79.605 Y-38.593 E1972.86574
G1 X27.493 Y68.505 E1995.48439
G1 X28.907 Y68.505 E1995.69555
G1 X-79.605 Y-40.007 E2018.61283
G1 X-79.605 Y-41.421 E2018.824
G1 X30.322 Y68.505 E2042.04002
G1 X31.736 Y68.505 E2042.25118
G1 X-79.605 Y-42.835 E2065.76583
G1 X-79.605 Y-44.25 E2065.97714
G1 X33.15 Y68.505 E2089.79053
G1 X34.564 Y68.505 E2090.00169
G1 X-79.605 Y-45.664 E2114.11371
G1 X-79.605 Y-47.078 E2114.32487
G1 X35.979 Y68.505 E2138.73563
G1 X37.393 Y68.505 E2138.94679
G1 X-79.605 Y-48.492 E2163.65618
G1 X-79.605 Y-49.906 E2163.86734
G1 X38.807 Y68.505 E2188.87536
G1 X40.221 Y68.505 E2189.08652
G1 X-79.605 Y-51.321 E2214.39327
G1 X-79.605 Y-52.735 E2214.60444
G1 X41.635 Y68.505 E2240.20982
G1 X43.05 Y68.505 E2240.42113
G1 X-79.593 Y-54.137 E2266.32272
G1 X-79.567 Y-54.848 E2266.42897
G1 X-79.5 Y-55.458 E2266.52061
G1 X44.464 Y68.505 E2292.70119
G1 X45.878 Y68.505 E2292.91235
G1 X-79.309 Y-56.681 E2319.35122
G1 X-79.258 Y-56.957 E2319.39313
G1 X-79.032 Y-57.819 E2319.52621
G1 X47.292 Y68.505 E2346.20531
G1 X48.706 Y68.505 E2346.41648
G1 X-78.683 Y-58.884 E2373.32051
G1 X-78.634 Y-59.026 E2373.34294
G1 X-78.269 Y-59.884 E2373.48218
G1 X50.121 Y68.505 E2400.59751
G1 X51.535 Y68.505 E2400.80867
G1 X-77.795 Y-60.825 E2428.12263
G1 X-77.737 Y-60.937 E2428.14147
G1 X-77.266 Y-61.709 E2428.27652
G1 X52.949 Y68.505 E2455.77728
G1 X54.363 Y68.505 E2455.98844
G1 X-76.685 Y-62.542 E2483.66513
G1 X-76.561 Y-62.714 E2483.69679
G1 X-76.052 Y-63.324 E2483.81544
G1 X55.777 Y68.505 E2511.65717
G1 X57.192 Y68.505 E2511.86849
G1 X-75.376 Y-64.063 E2539.8663
G1 X-75.318 Y-64.123 E2539.87876
G1 X-75.224 Y-64.218 E2539.89872
G1 X-74.651 Y-64.751 E2540.01558
