;FLAVOR:Marlin
;TIME:19940
;Filament used: 19.3461m
;Layer height: 0.28
;MINX:25.619
;MINY:77.81
;MINZ:0.28
;MAXX:194.174
;MAXY:147
;MAXZ:29.4
;Generated with Cura_SteamEngine main
M82 ;absolute extrusion mode
; Ender 3 Custom Start G-code
G92 E0 ; Reset Extruder
G28 ; Home all axes
M104 S175 ; Start heating up the nozzle most of the way
M190 S60 ; Start heating the bed, wait until target temperature reached
M109 S200 ; Finish heating the nozzle
G1 Z2.0 F3000 ; Move Z Axis up little to prevent scratching of Heat Bed
G1 X0.1 Y20 Z0.3 F5000.0 ; Move to start position
G1 X0.1 Y200.0 Z0.3 F1500.0 E15 ; Draw the first line
G1 X0.4 Y200.0 Z0.3 F5000.0 ; Move to side a little
G1 X0.4 Y20 Z0.3 F1500.0 E30 ; Draw the second line
G92 E0 ; Reset Extruder
G1 Z2.0 F3000 ; Move Z Axis up little to prevent scratching of Heat Bed
G1 X5 Y20 Z0.3 F5000.0 ; Move over to prevent blob squish
G92 E0
G92 E0
G1 F1500 E-6.5
;LAYER_COUNT:105
;LAYER:0
M107
G0 F6000 X32.715 Y78.729 Z0.28
G0 X25.62 Y89.553
;TYPE:SKIRT
G1 F1500 E0
G1 F1200 X25.629 Y88.865 E0.03204
G1 X25.681 Y87.929 E0.07569
G1 X25.813 Y87 E0.11938
G1 X26.023 Y86.086 E0.16305
G1 X26.311 Y85.193 E0.20674
G1 X26.673 Y84.328 E0.25041
G1 X27.108 Y83.498 E0.29404
G1 X27.612 Y82.707 E0.33771
G1 X28.182 Y81.962 E0.38139
G1 X28.813 Y81.268 E0.42507
G1 X29.501 Y80.63 E0.46876
G1 X30.241 Y80.054 E0.51242
G1 X31.027 Y79.542 E0.5561
G1 X31.853 Y79.099 E0.59975
G1 X32.715 Y78.729 E0.64343
G1 X33.605 Y78.433 E0.6871
G1 X34.517 Y78.214 E0.73078
G1 X35.444 Y78.073 E0.77444
G1 X36.32 Y78.013 E0.81532
G1 X36.949 Y78 E0.84462
G1 X99.07 Y78.001 E3.73723
G1 X99.767 Y78.011 E3.76969
G1 X100.375 Y78.037 E3.79803
G1 X101.096 Y78.088 E3.83168
G1 X102.731 Y78.226 E3.90809
G1 X105.253 Y78.368 E4.02571
G1 X107.774 Y78.439 E4.14314
G1 X110.298 Y78.437 E4.26067
G1 X112.787 Y78.366 E4.37662
G1 X115.306 Y78.222 E4.4941
G1 X117.845 Y78.005 E4.61276
G1 X119.024 Y77.88 E4.66797
G1 X119.875 Y77.823 E4.70768
G1 X120.504 Y77.81 E4.73698
G1 X182.625 Y77.811 E7.62959
G1 X183.323 Y77.821 E7.6621
G1 X184.259 Y77.875 E7.70575
G1 X185.187 Y78.007 E7.7494
G1 X186.101 Y78.219 E7.79309
G1 X186.993 Y78.508 E7.83675
G1 X187.858 Y78.871 E7.88043
G1 X188.688 Y79.307 E7.92409
G1 X189.479 Y79.812 E7.96779
G1 X190.223 Y80.383 E8.01146
G1 X190.916 Y81.015 E8.05513
G1 X191.553 Y81.703 E8.09879
G1 X192.128 Y82.444 E8.14246
G1 X192.639 Y83.23 E8.18612
G1 X193.081 Y84.058 E8.22982
G1 X193.45 Y84.92 E8.27348
G1 X193.745 Y85.81 E8.31714
G1 X193.963 Y86.722 E8.36081
G1 X194.103 Y87.65 E8.40451
G1 X194.16 Y88.501 E8.44422
G1 X194.174 Y89.13 E8.47352
G1 X194.173 Y135.21 E10.61919
G1 X194.164 Y135.937 E10.65305
G1 X194.113 Y136.874 E10.69674
G1 X193.981 Y137.802 E10.74039
G1 X193.772 Y138.716 E10.78405
G1 X193.485 Y139.609 E10.82773
G1 X193.123 Y140.475 E10.87143
G1 X192.689 Y141.306 E10.91509
G1 X192.185 Y142.097 E10.95876
G1 X191.616 Y142.842 E11.00241
G1 X190.985 Y143.537 E11.04612
G1 X190.298 Y144.175 E11.08978
G1 X189.559 Y144.752 E11.13344
G1 X188.773 Y145.264 E11.17711
G1 X187.947 Y145.707 E11.22076
G1 X187.085 Y146.079 E11.26448
G1 X186.196 Y146.375 E11.30811
G1 X185.284 Y146.595 E11.35179
G1 X184.357 Y146.736 E11.39545
G1 X183.473 Y146.797 E11.43671
G1 X182.844 Y146.81 E11.46601
G1 X120.723 Y146.809 E14.35862
G1 X120.026 Y146.799 E14.39108
G1 X119.418 Y146.773 E14.41942
G1 X118.697 Y146.722 E14.45307
G1 X117.062 Y146.584 E14.52948
G1 X114.54 Y146.442 E14.6471
G1 X112.019 Y146.371 E14.76453
G1 X109.495 Y146.373 E14.88206
G1 X107.006 Y146.444 E14.99801
G1 X104.487 Y146.588 E15.11549
G1 X101.948 Y146.805 E15.23415
G1 X100.769 Y146.93 E15.28936
G1 X99.918 Y146.987 E15.32907
G1 X99.289 Y147 E15.35837
G1 X37.168 Y146.999 E18.25098
G1 X36.47 Y146.989 E18.28349
G1 X35.534 Y146.935 E18.32714
G1 X34.606 Y146.803 E18.37079
G1 X33.692 Y146.591 E18.41448
G1 X32.8 Y146.302 E18.45814
G1 X31.935 Y145.939 E18.50182
G1 X31.105 Y145.503 E18.54548
G1 X30.314 Y144.998 E18.58918
G1 X29.57 Y144.427 E18.63285
G1 X28.877 Y143.795 E18.67652
G1 X28.24 Y143.107 E18.72018
G1 X27.665 Y142.366 E18.76385
G1 X27.154 Y141.58 E18.80751
G1 X26.712 Y140.752 E18.85121
G1 X26.343 Y139.89 E18.89487
G1 X26.048 Y139 E18.93853
G1 X25.83 Y138.088 E18.98219
G1 X25.69 Y137.16 E19.02589
G1 X25.632 Y136.288 E19.06659
G1 X25.619 Y135.658 E19.09593
G1 X25.62 Y89.553 E21.24277
G0 F6000 X26.02 Y89.558
G1 F1200 X26.029 Y88.87 E21.27481
G1 X26.081 Y87.951 E21.31767
G1 X26.212 Y87.04 E21.36053
G1 X26.423 Y86.144 E21.40339
G1 X26.71 Y85.269 E21.44627
G1 X27.072 Y84.422 E21.48916
G1 X27.506 Y83.61 E21.53203
G1 X28.009 Y82.839 E21.5749
G1 X28.576 Y82.115 E21.61772
G1 X29.205 Y81.442 E21.66061
G1 X29.89 Y80.826 E21.70351
G1 X30.625 Y80.273 E21.74634
G1 X31.406 Y79.785 E21.78922
G1 X32.226 Y79.366 E21.8321
G1 X33.079 Y79.021 E21.87495
G1 X33.959 Y78.75 E21.91782
G1 X34.86 Y78.558 E21.96072
G1 X35.773 Y78.444 E22.00356
G1 X36.331 Y78.413 E22.02958
G1 X36.949 Y78.4 E22.05837
G1 X99.064 Y78.401 E24.9507
G1 X99.761 Y78.411 E24.98316
G1 X100.347 Y78.436 E25.01047
G1 X101.062 Y78.487 E25.04385
G1 X102.708 Y78.626 E25.12077
G1 X105.22 Y78.768 E25.23792
G1 X107.763 Y78.839 E25.35638
G1 X110.274 Y78.837 E25.4733
G1 X112.822 Y78.764 E25.592
G1 X115.362 Y78.619 E25.71046
G1 X117.872 Y78.405 E25.82776
G1 X119.066 Y78.278 E25.88368
G1 X119.886 Y78.223 E25.92194
G1 X120.504 Y78.21 E25.95073
G1 X182.619 Y78.211 E28.84306
G1 X183.317 Y78.221 E28.87557
G1 X184.236 Y78.274 E28.91843
G1 X185.147 Y78.407 E28.9613
G1 X186.043 Y78.618 E29.00416
G1 X186.917 Y78.906 E29.04701
G1 X187.764 Y79.269 E29.08992
G1 X188.575 Y79.704 E29.13277
G1 X189.345 Y80.208 E29.17563
G1 X190.069 Y80.777 E29.2185
G1 X190.741 Y81.407 E29.2614
G1 X191.356 Y82.092 E29.30426
G1 X191.909 Y82.828 E29.34713
G1 X192.396 Y83.609 E29.38999
G1 X192.813 Y84.43 E29.43286
G1 X193.158 Y85.284 E29.47575
G1 X193.427 Y86.164 E29.5186
G1 X193.619 Y87.065 E29.5615
G1 X193.732 Y87.978 E29.60433
G1 X193.761 Y88.512 E29.62924
G1 X193.774 Y89.13 E29.65802
G1 X193.773 Y135.205 E31.80346
G1 X193.764 Y135.932 E31.83732
G1 X193.713 Y136.851 E31.88018
G1 X193.582 Y137.763 E31.92308
G1 X193.372 Y138.659 E31.96593
G1 X193.086 Y139.534 E32.0088
G1 X192.725 Y140.381 E32.05167
G1 X192.291 Y141.193 E32.09454
G1 X191.789 Y141.965 E32.13742
G1 X191.221 Y142.69 E32.18031
G1 X190.593 Y143.363 E32.22317
G1 X189.909 Y143.979 E32.26603
G1 X189.174 Y144.533 E32.30889
G1 X188.394 Y145.022 E32.35176
G1 X187.574 Y145.441 E32.39463
G1 X186.721 Y145.787 E32.4375
G1 X185.841 Y146.058 E32.48037
G1 X184.941 Y146.251 E32.52323
G1 X184.027 Y146.366 E32.56613
G1 X183.462 Y146.397 E32.59248
G1 X182.844 Y146.41 E32.62126
G1 X120.729 Y146.409 E35.51359
G1 X120.032 Y146.399 E35.54605
G1 X119.446 Y146.374 E35.57336
G1 X118.731 Y146.323 E35.60674
G1 X117.085 Y146.184 E35.68366
G1 X114.573 Y146.042 E35.80082
G1 X112.03 Y145.971 E35.91927
G1 X109.519 Y145.973 E36.0362
G1 X106.971 Y146.046 E36.15489
G1 X104.431 Y146.191 E36.27336
G1 X101.921 Y146.405 E36.39066
G1 X100.727 Y146.532 E36.44657
G1 X99.907 Y146.587 E36.48484
G1 X99.289 Y146.6 E36.51362
G1 X37.174 Y146.599 E39.40595
G1 X36.476 Y146.589 E39.43846
G1 X35.557 Y146.536 E39.48132
G1 X34.646 Y146.403 E39.52419
G1 X33.75 Y146.192 E39.56706
G1 X32.876 Y145.904 E39.60991
G1 X32.029 Y145.541 E39.65281
G1 X31.218 Y145.106 E39.69567
G1 X30.448 Y144.602 E39.73852
G1 X29.724 Y144.033 E39.7814
G1 X29.052 Y143.403 E39.82429
G1 X28.437 Y142.718 E39.86715
G1 X27.884 Y141.982 E39.91002
G1 X27.397 Y141.201 E39.95288
G1 X26.98 Y140.38 E39.99576
G1 X26.635 Y139.526 E40.03865
G1 X26.366 Y138.646 E40.08149
G1 X26.174 Y137.745 E40.12439
G1 X26.061 Y136.832 E40.16723
G1 X26.032 Y136.277 E40.19311
G1 X26.019 Y135.658 E40.22194
G1 X26.02 Y89.558 E42.36854
G0 F6000 X26.42 Y89.564
G1 F1200 X26.429 Y88.876 E42.40058
G1 X26.481 Y87.974 E42.44265
G1 X26.612 Y87.08 E42.48473
G1 X26.822 Y86.202 E42.52676
G1 X27.109 Y85.346 E42.5688
G1 X27.47 Y84.518 E42.61086
G1 X27.903 Y83.726 E42.65289
G1 X28.405 Y82.975 E42.69496
G1 X28.971 Y82.271 E42.73702
G1 X29.597 Y81.62 E42.77907
G1 X30.278 Y81.027 E42.82112
G1 X31.009 Y80.496 E42.86319
G1 X31.784 Y80.033 E42.90523
G1 X32.597 Y79.639 E42.9473
G1 X33.441 Y79.32 E42.98931
G1 X34.311 Y79.076 E43.03138
G1 X35.198 Y78.91 E43.0734
G1 X36.342 Y78.813 E43.12686
G1 X36.949 Y78.8 E43.15513
G1 X99.058 Y78.801 E46.04719
G1 X99.755 Y78.811 E46.07965
G1 X100.319 Y78.835 E46.10593
G1 X101.029 Y78.885 E46.13908
G1 X102.691 Y79.026 E46.21674
G1 X105.221 Y79.168 E46.33474
G1 X107.752 Y79.239 E46.45264
G1 X110.286 Y79.237 E46.57063
G1 X112.854 Y79.164 E46.69026
G1 X115.35 Y79.021 E46.80667
G1 X117.947 Y78.799 E46.92804
G1 X119.108 Y78.676 E46.9824
G1 X119.897 Y78.623 E47.01923
G1 X120.504 Y78.61 E47.0475
G1 X182.613 Y78.611 E49.93955
G1 X183.311 Y78.621 E49.97206
G1 X184.213 Y78.674 E50.01413
G1 X185.106 Y78.806 E50.05616
G1 X185.984 Y79.017 E50.09821
G1 X186.84 Y79.305 E50.14027
G1 X187.667 Y79.667 E50.1823
G1 X188.459 Y80.102 E50.22438
G1 X189.21 Y80.604 E50.26644
G1 X189.913 Y81.171 E50.30849
G1 X190.563 Y81.798 E50.35055
G1 X191.155 Y82.48 E50.3926
G1 X191.685 Y83.211 E50.43464
G1 X192.147 Y83.987 E50.4767
G1 X192.54 Y84.8 E50.51874
G1 X192.858 Y85.645 E50.56078
G1 X193.101 Y86.515 E50.60285
G1 X193.266 Y87.403 E50.6449
G1 X193.361 Y88.524 E50.69729
G1 X193.374 Y89.13 E50.72551
G1 X193.373 Y135.2 E52.87072
G1 X193.364 Y135.927 E52.90458
G1 X193.313 Y136.829 E52.94665
G1 X193.182 Y137.723 E52.98872
G1 X192.973 Y138.601 E53.03075
G1 X192.687 Y139.458 E53.07282
G1 X192.326 Y140.286 E53.11488
G1 X191.894 Y141.078 E53.15688
G1 X191.393 Y141.83 E53.19896
G1 X190.827 Y142.534 E53.24102
G1 X190.202 Y143.185 E53.28304
G1 X189.521 Y143.779 E53.32512
G1 X188.79 Y144.31 E53.36719
G1 X188.016 Y144.774 E53.40921
G1 X187.203 Y145.168 E53.45128
G1 X186.359 Y145.488 E53.49331
G1 X185.489 Y145.733 E53.5354
G1 X184.602 Y145.899 E53.57742
G1 X183.451 Y145.997 E53.63121
G1 X182.844 Y146.01 E53.65948
G1 X120.735 Y146.009 E56.55153
G1 X120.038 Y145.999 E56.58399
G1 X119.474 Y145.975 E56.61028
G1 X118.764 Y145.925 E56.64342
G1 X117.102 Y145.784 E56.72109
G1 X114.572 Y145.642 E56.83908
G1 X112.041 Y145.571 E56.95698
G1 X109.507 Y145.573 E57.07497
G1 X106.939 Y145.646 E57.1946
G1 X104.443 Y145.789 E57.31101
G1 X101.846 Y146.011 E57.43238
G1 X100.685 Y146.134 E57.48675
G1 X99.896 Y146.187 E57.52357
G1 X99.289 Y146.2 E57.55184
G1 X37.18 Y146.199 E60.44389
G1 X36.482 Y146.189 E60.4764
G1 X35.58 Y146.136 E60.51847
G1 X34.687 Y146.004 E60.56051
G1 X33.809 Y145.793 E60.60255
G1 X32.953 Y145.505 E60.64461
G1 X32.126 Y145.143 E60.68664
G1 X31.334 Y144.708 E60.72872
G1 X30.583 Y144.206 E60.77078
G1 X29.88 Y143.639 E60.81284
G1 X29.23 Y143.012 E60.85489
G1 X28.638 Y142.33 E60.89694
G1 X28.108 Y141.599 E60.93899
G1 X27.646 Y140.823 E60.98104
G1 X27.253 Y140.01 E61.02309
G1 X26.935 Y139.165 E61.06513
G1 X26.692 Y138.295 E61.10719
G1 X26.527 Y137.407 E61.14925
G1 X26.432 Y136.266 E61.20256
G1 X26.419 Y135.658 E61.23088
G1 X26.42 Y89.564 E63.37721
G1 F1500 E56.87721
;MESH:dittotop.stl
G0 F6000 X35.954 Y89.564
G0 X99.019 Y135.4
;TYPE:WALL-INNER
G1 F1500 E63.37721
G1 F1200 X99.019 Y89.6 E65.50985
G1 X37.219 Y89.6 E68.38751
G1 X37.219 Y135.4 E70.52015
G1 X99.019 Y135.4 E73.39782
G0 F6000 X99.419 Y135.8
;TYPE:WALL-OUTER
G1 F1200 X99.419 Y89.2 E75.56771
G1 X36.819 Y89.2 E78.48263
G1 X36.819 Y135.8 E80.65252
G1 X99.419 Y135.8 E83.56744
G0 F6000 X99.149 Y135.53
G0 X98.919 Y135.04
G0 X98.659 Y135.04
;TYPE:SKIN
G1 F1200 X98.659 Y89.96 E85.66655
G1 X37.579 Y89.96 E88.51069
G1 X37.579 Y135.04 E90.60981
G1 X98.659 Y135.04 E93.45395
G1 F1500 E86.95395
G0 F6000 X98.919 Y135.04
G0 X98.919 Y90.539
G1 F1500 E93.45395
G0 F6000 X98.458 Y90.539
G1 F1200 X98.079 Y90.159 E93.47894
G0 F6000 X97.513 Y90.159
G1 F1200 X98.458 Y91.105 E93.5412
G0 F6000 X98.458 Y91.67
G1 F1200 X96.947 Y90.159 E93.6407
G0 F6000 X96.382 Y90.159
G1 F1200 X98.458 Y92.236 E93.77744
G0 F6000 X98.458 Y92.802
G1 F1200 X95.816 Y90.159 E93.95146
G0 F6000 X95.25 Y90.159
G1 F1200 X98.458 Y93.367 E94.16271
G0 F6000 X98.458 Y93.933
G1 F1200 X94.685 Y90.159 E94.4112
G0 F6000 X94.119 Y90.159
G1 F1200 X98.458 Y94.499 E94.69696
G0 F6000 X98.458 Y95.064
G1 F1200 X93.553 Y90.159 E95.01997
G0 F6000 X92.988 Y90.159
G1 F1200 X98.458 Y95.63 E95.38021
G0 F6000 X98.458 Y96.196
G1 F1200 X92.422 Y90.159 E95.77772
G0 F6000 X91.856 Y90.159
G1 F1200 X98.458 Y96.761 E96.21248
G0 F6000 X98.458 Y97.327
G1 F1200 X91.291 Y90.159 E96.68447
G0 F6000 X90.725 Y90.159
G1 F1200 X98.458 Y97.893 E97.19373
G0 F6000 X98.458 Y98.458
G1 F1200 X90.159 Y90.159 E97.74024
G0 F6000 X89.593 Y90.159
G1 F1200 X98.458 Y99.024 E98.32401
G0 F6000 X98.458 Y99.59
G1 F1200 X89.028 Y90.159 E98.94503
G0 F6000 X88.462 Y90.159
G1 F1200 X98.458 Y100.156 E99.60331
G0 F6000 X98.458 Y100.721
G1 F1200 X87.896 Y90.159 E100.29884
G0 F6000 X87.331 Y90.159
G1 F1200 X98.458 Y101.287 E101.0316
G0 F6000 X98.458 Y101.853
G1 F1200 X86.765 Y90.159 E101.80164
G0 F6000 X86.199 Y90.159
G1 F1200 X98.458 Y102.418 E102.60892
G0 F6000 X98.458 Y102.984
G1 F1200 X85.634 Y90.159 E103.45343
G0 F6000 X85.068 Y90.159
G1 F1200 X98.458 Y103.55 E104.33522
G0 F6000 X98.458 Y104.115
G1 F1200 X84.502 Y90.159 E105.25424
G0 F6000 X83.937 Y90.159
G1 F1200 X98.458 Y104.681 E106.21051
G0 F6000 X98.458 Y105.247
G1 F1200 X83.371 Y90.159 E107.20405
G0 F6000 X82.805 Y90.159
G1 F1200 X98.458 Y105.812 E108.23482
G0 F6000 X98.458 Y106.378
G1 F1200 X82.24 Y90.159 E109.30284
G0 F6000 X81.674 Y90.159
G1 F1200 X98.458 Y106.944 E110.40813
G0 F6000 X98.458 Y107.509
G1 F1200 X81.108 Y90.159 E111.55066
G0 F6000 X80.542 Y90.159
G1 F1200 X98.458 Y108.075 E112.73045
G0 F6000 X98.458 Y108.641
G1 F1200 X79.977 Y90.159 E113.94749
G0 F6000 X79.411 Y90.159
G1 F1200 X98.458 Y109.206 E115.20177
G0 F6000 X98.458 Y109.772
G1 F1200 X78.845 Y90.159 E116.49332
G0 F6000 X78.28 Y90.159
G1 F1200 X98.458 Y110.338 E117.82211
G0 F6000 X98.458 Y110.904
G1 F1200 X77.714 Y90.159 E119.18817
G0 F6000 X77.148 Y90.159
G1 F1200 X98.458 Y111.469 E120.59147
G0 F6000 X98.458 Y112.035
G1 F1200 X76.583 Y90.159 E122.03201
G0 F6000 X76.017 Y90.159
G1 F1200 X98.458 Y112.601 E123.50982
G0 F6000 X98.458 Y113.166
G1 F1200 X75.451 Y90.159 E125.02487
G0 F6000 X74.886 Y90.159
G1 F1200 X98.458 Y113.732 E126.57716
G0 F6000 X98.458 Y114.298
G1 F1200 X74.32 Y90.159 E128.16672
G0 F6000 X73.754 Y90.159
G1 F1200 X98.458 Y114.863 E129.79352
G0 F6000 X98.458 Y115.429
G1 F1200 X73.189 Y90.159 E131.45756
G0 F6000 X72.623 Y90.159
G1 F1200 X98.458 Y115.995 E133.15887
G0 F6000 X98.458 Y116.56
G1 F1200 X72.057 Y90.159 E134.89742
G0 F6000 X71.492 Y90.159
G1 F1200 X98.458 Y117.126 E136.67321
G0 F6000 X98.458 Y117.692
G1 F1200 X70.926 Y90.159 E138.48628
G0 F6000 X70.36 Y90.159
G1 F1200 X98.458 Y118.257 E140.33658
G0 F6000 X98.458 Y118.823
G1 F1200 X69.794 Y90.159 E142.22415
G0 F6000 X69.229 Y90.159
G1 F1200 X98.458 Y119.389 E144.14896
G0 F6000 X98.458 Y119.955
G1 F1200 X68.663 Y90.159 E146.11105
G0 F6000 X68.097 Y90.159
G1 F1200 X98.458 Y120.52 E148.11037
G0 F6000 X98.458 Y121.086
G1 F1200 X67.532 Y90.159 E150.14693
G0 F6000 X66.966 Y90.159
G1 F1200 X98.458 Y121.652 E152.22077
G0 F6000 X98.458 Y122.217
G1 F1200 X66.4 Y90.159 E154.33184
G0 F6000 X65.835 Y90.159
G1 F1200 X98.458 Y122.783 E156.48016
G0 F6000 X98.458 Y123.349
G1 F1200 X65.269 Y90.159 E158.66574
G0 F6000 X64.703 Y90.159
G1 F1200 X98.458 Y123.914 E160.88857
G0 F6000 X98.458 Y124.48
G1 F1200 X64.138 Y90.159 E163.14863
G0 F6000 X63.572 Y90.159
G1 F1200 X98.458 Y125.046 E165.44597
G0 F6000 X98.458 Y125.611
G1 F1200 X63.006 Y90.159 E167.78054
G0 F6000 X62.441 Y90.159
G1 F1200 X98.458 Y126.177 E170.15235
G0 F6000 X98.458 Y126.743
G1 F1200 X61.875 Y90.159 E172.56144
G0 F6000 X61.309 Y90.159
G1 F1200 X98.458 Y127.308 E175.00776
G0 F6000 X98.458 Y127.874
G1 F1200 X60.744 Y90.159 E177.49133
G0 F6000 X60.178 Y90.159
G1 F1200 X98.458 Y128.44 E180.01217
G0 F6000 X98.458 Y129.005
G1 F1200 X59.612 Y90.159 E182.57024
G0 F6000 X59.046 Y90.159
G1 F1200 X98.458 Y129.571 E185.16559
G0 F6000 X98.458 Y130.137
G1 F1200 X58.481 Y90.159 E187.79817
G0 F6000 X57.915 Y90.159
G1 F1200 X98.458 Y130.703 E190.46803
G0 F6000 X98.458 Y131.268
